!!!!SEGMENT: pl-sa--177-a-v-7--001-006_luna-georgius--missa-ex-d-benedictus.krn
!!!cenid: 17xx:470
!!!COM: Luna, Georgius
!!!COM-rismID: pe41010079
!!!CDT:
!!!CNT:
!!!OPR: Missa ex D
!!!OTL: Benedictus
!!!OMV: 006
!!!PDT:
!!!AGN: Sacred; Mass
!!!YEC: Copyright 2022 Narodowy Instytut Fryderyka Chopina (https://polishscores.org)
!!!YEM: License CC-BY-4.0 (https://creativecommons.org/licenses/by/4.0)
!!!SMS-siglum: PL-SA
!!!SMS-shelfmark: 177/A V 7
!!!SMS-shelfwork: 001-006 M
!!!SMS-variant:
!!!SMS-altvar:
!!!NIFC-rismSourceID: 1001035883
!!!NIFC-rismChildID: 1001035883
!!!NIFC-islandoraID: none
!!!URL-pdf-islandora:
!!!URL-scan: https://bc.bdsandomierz.pl/dlibra/publication/1512/edition/1480/content @EN{Scan in the Sandomierz Diocese Digital Library} @PL{Skany w portalu Cyfrowa Biblioteka Diecezjalna w Sandomierzu}
!!!IIIF:
!!!ONB-nifc: UWAGA; części Mszy: Sinfonia, Kyrie, Gloria, Patrem, Sanctus, Benedictus, Agnus, Dona. UWAGA: brak partii cornu primo, cornu secundo
!!!AIN: 2 clrno 2 cor 2 oboe 1 organ 1 soprn 1 tenor 2 violn
!!!OMD:
!!!OMD-mod: Adagio
!!!key: G
**kern	**dynam	**kern	**dynam	**kern	**dynam	**kern	**text	**kern	**kern	**kern	**kern	**kern	**kern	**kern
*part11	*part11	*part10	*part10	*part9	*part9	*part8	*part8	*part7	*part6	*part5	*part4	*part3	*part2	*part1
*staff11	*	*staff10	*	*staff9	*	*staff8	*staff8	*staff7	*staff6	*staff5	*staff4	*staff3	*staff2	*staff1
*ICklav	*	*ICstr	*	*ICstr	*	*ICvox	*	*ICvox	*ICbras	*ICbras	*ICbras	*ICbras	*ICww	*ICww
*Iorgan	*	*Ivioln	*	*Ivioln	*	*Itenor	*	*Isoprn	*Iclrno	*Iclrno	*Icor	*Icor	*Ioboe	*Ioboe
*I"Fundamento	*	*I"Violino Secundo	*	*I"Violino Primo	*	*I"Tenor	*	*I"Canto	*I"Clarino Secundo	*I"Clarino Primo	*I"Cornu Secundo	*I"Cornu Primo	*I"Hobois 2do	*I"Hobois Primo
*mI"Basso continuo	*	*mI"Violino II	*	*mI"Violino I	*	*mI"Tenore	*	*mI"Soprano	*mI"Clarino II	*mI"Clarino I	*mI"Corno II	*mI"Corno I	*mI"Oboe II	*mI"Oboe I
*I'bc	*	*I'vl 2	*	*I'vl 1	*	*I'T	*	*I'S	*I'clno 2	*I'clno 1	*I'cor 2	*I'cor 1	*I'ob 2	*I'ob 1
!	!	!	!	!	!	!	!	!LO:MO:null:mod=*tacet	!LO:MO:null:mod=*tacet	!LO:MO:null:mod=*tacet	!LO:MO:null:mod=*tacet	!LO:MO:null:mod=*tacet	!LO:MO:null:mod=*tacet	!LO:MO:null:mod=*tacet
*	*	*	*	*	*	*	*	*null	*null	*null	*null	*null	*null	*null
*clefF4	*	*clefG2	*	*clefG2	*	*clefC4	*	*clefC1	*clefG2	*clefG2	*clefG2	*clefG2	*clefG2	*clefG2
*	*	*	*	*	*	*mclefGv2	*	*mclefG2	*	*	*	*	*	*
*k[f#]	*	*k[f#]	*	*k[f#]	*	*k[f#]	*	*k[f#]	*k[f#]	*k[f#]	*k[f#]	*k[f#]	*k[f#]	*k[f#]
*G:	*	*G:	*	*G:	*	*G:	*	*G:	*G:	*G:	*G:	*G:	*G:	*G:
*M4/4	*	*M4/4	*	*M4/4	*	*M4/4	*	*M4/4	*M4/4	*M4/4	*M4/4	*M4/4	*M4/4	*M4/4
*met(c)	*	*met(c)	*	*met(c)	*	*met(c)	*	*met(c)	*met(c)	*met(c)	*met(c)	*met(c)	*met(c)	*met(c)
*mmet(c)	*	*mmet(c)	*	*mmet(c)	*	*mmet(c)	*	*mmet(c)	*mmet(c)	*mmet(c)	*mmet(c)	*mmet(c)	*mmet(c)	*mmet(c)
=1	=1	=1	=1	=1	=1	=1	=1	=1	=1	=1	=1	=1	=1	=1
!LO:TX:b:i:mod= :t=Benedictus	!	!LO:TX:b:i:mod= :t=Benedictus	!	!	!	!	!	!	!	!	!	!	!	!
!LO:TX:a:Bi:mod= :t=Adagio Solo	!	!LO:TX:a:Bi:mod= :t=Adagio	!	!LO:TX:b:i:mod= :t=Benedictuſ.	!	!LO:TX:a:Bi:mod= :t=Adagio	!	!LO:TX:a:i:t=Bene dictus Tacet oſanna ut Supra	!LO:TX:a:i:t=Benedictus Ta Cet	!LO:TX:a:i:t=TaCet\nBenedictus	!LO:TX:t=P:problem=zgodnie z RISM "cor 1, 2 parts missing"	!LO:TX:t=P:problem=zgodnie z RISM "cor 1, 2 parts missing"	!LO:TX:t=P:problem=brak informacji o partii w części "Benedictus"	!LO:TX:t=P:problem=brak informacji o partii w części "Benedictus"
8G\L	.	8b\L	.	4gg\	.	00r	.	1ryy	1ryy	1ryy	1ryy	1ryy	1ryy	1ryy
8G\	.	8b\	.	.	.	.	.	.	.	.	.	.	.	.
!	!	!	!	!LO:TUP:a:problem=kropka zamiast numeru	!	!	!	!	!	!	!	!	!	!
8G\	.	8b\	.	(24gg\LL	.	.	.	.	.	.	.	.	.	.
.	.	.	.	24ff#\	.	.	.	.	.	.	.	.	.	.
.	.	.	.	24ee\JJ)	.	.	.	.	.	.	.	.	.	.
!	!	!	!	!LO:TUP:a:problem=kropka zamiast numeru	!	!	!	!	!	!	!	!	!	!
8G\J	.	8b\J	.	(24dd\LL	.	.	.	.	.	.	.	.	.	.
.	.	.	.	24cc\	.	.	.	.	.	.	.	.	.	.
.	.	.	.	24b\JJ)	.	.	.	.	.	.	.	.	.	.
!LO:TX:t=P:problem=mixed beam	!	!	!	!LO:TUP:a:problem=kropka zamiast numeru	!	!	!	!	!	!	!	!	!	!
8G\L	.	8cc\L	.	(24cc\LL	.	.	.	.	.	.	.	.	.	.
.	.	.	.	24dd\	.	.	.	.	.	.	.	.	.	.
.	.	.	.	24ee\J)	.	.	.	.	.	.	.	.	.	.
!	!	!LO:SIC:s=8b	!	!	!	!	!	!	!	!	!	!	!	!
8G\	.	8b\J	.	8dd\J	.	.	.	.	.	.	.	.	.	.
!	!	!LO:SIC:s=8d	!	!	!	!	!	!	!	!	!	!	!	!
8BB/	.	8d/L	.	8r	.	.	.	.	.	.	.	.	.	.
8BB/J	.	8d/J	.	8g/	.	.	.	.	.	.	.	.	.	.
=2	=2	=2	=2	=2	=2	=2	=2	=2	=2	=2	=2	=2	=2	=2
!	!	!	!	!LO:TUP:b:problem=kropka zamiast numeru	!	!	!	!	!	!	!	!	!	!
8C/L	.	8e/L	.	(24g/LL	.	.	.	1ryy	1ryy	1ryy	1ryy	1ryy	1ryy	1ryy
.	.	.	.	24a/	.	.	.	.	.	.	.	.	.	.
.	.	.	.	24b/JJ)	.	.	.	.	.	.	.	.	.	.
!	!	!	!	!LO:TUP:a:problem=kropka zamiast numeru	!	!	!	!	!	!	!	!	!	!
8C/	.	8e/	.	(24cc\LL	.	.	.	.	.	.	.	.	.	.
.	.	.	.	24dd\	.	.	.	.	.	.	.	.	.	.
.	.	.	.	24ee\JJ)	.	.	.	.	.	.	.	.	.	.
!	!	!	!	!LO:TUP:a:problem=kropka zamiast numeru	!	!	!	!	!	!	!	!	!	!
8D/	.	8f#/	.	(24dd\LL	.	.	.	.	.	.	.	.	.	.
.	.	.	.	24cc\	.	.	.	.	.	.	.	.	.	.
.	.	.	.	24b\JJ)	.	.	.	.	.	.	.	.	.	.
!	!	!	!	!LO:TUP:b:problem=kropka zamiast numeru	!	!	!	!	!	!	!	!	!	!
8D/J	.	8f#/J	.	(24a/LL	.	.	.	.	.	.	.	.	.	.
.	.	.	.	24g/	.	.	.	.	.	.	.	.	.	.
.	.	.	.	24f#/JJ)	.	.	.	.	.	.	.	.	.	.
!	!	!	!	!LO:TX:t=P:problem=mixed beam	!	!	!	!	!	!	!	!	!	!
8E\L	.	8g/L	.	8g/L	.	.	.	.	.	.	.	.	.	.
8E\	.	8g/	.	8gg\J	.	.	.	.	.	.	.	.	.	.
8BB\	.	8d/	.	4ggT\	.	.	.	.	.	.	.	.	.	.
8BB\J	.	8d/J	.	.	.	.	.	.	.	.	.	.	.	.
=3	=3	=3	=3	=3	=3	=3	=3	=3	=3	=3	=3	=3	=3	=3
!	!	!	!	!LO:TUP:b:problem=kropka zamiast numeru	!	!	!	!	!	!	!	!	!	!
8C/L	.	8e/L	.	(24g/LL	.	.	.	1ryy	1ryy	1ryy	1ryy	1ryy	1ryy	1ryy
.	.	.	.	24a/	.	.	.	.	.	.	.	.	.	.
.	.	.	.	24b/JJ)	.	.	.	.	.	.	.	.	.	.
!	!	!	!	!LO:TUP:a:problem=kropka zamiast numeru	!	!	!	!	!	!	!	!	!	!
8C/	.	8e/	.	(24cc\LL	.	.	.	.	.	.	.	.	.	.
.	.	.	.	24dd\	.	.	.	.	.	.	.	.	.	.
.	.	.	.	24ee\JJ)	.	.	.	.	.	.	.	.	.	.
!	!	!	!	!LO:TUP:a:problem=kropka zamiast numeru	!	!	!	!	!	!	!	!	!	!
8D/	.	8f#/	.	(24dd\LL	.	.	.	.	.	.	.	.	.	.
.	.	.	.	24cc\	.	.	.	.	.	.	.	.	.	.
.	.	.	.	24b\JJ)	.	.	.	.	.	.	.	.	.	.
!	!	!	!	!LO:TUP:b:problem=kropka zamiast numeru	!	!	!	!	!	!	!	!	!	!
8D/J	.	8f#/J	.	(24a/LL	.	.	.	.	.	.	.	.	.	.
.	.	.	.	24g/	.	.	.	.	.	.	.	.	.	.
.	.	.	.	24f#/JJ)	.	.	.	.	.	.	.	.	.	.
.	.	.	.	8qqf#/	.	.	.	.	.	.	.	.	.	.
!	!	!LO:TX:t=P:problem=mixed beam	!	!	!	!	!	!	!	!	!	!	!	!
8GG/L	.	8g/L	.	4g/	.	.	.	.	.	.	.	.	.	.
!LO:SIC:s=(16BBL	!	!	!	!	!	!	!	!	!	!	!	!	!	!
16BB/L	.	(16dd\L	.	.	.	.	.	.	.	.	.	.	.	.
!LO:SIC:s=16AAJJ)	!	!	!	!	!	!	!	!	!	!	!	!	!	!
16AA/JJ	.	16cc\JJ)	.	.	.	.	.	.	.	.	.	.	.	.
!LO:TX:t=P:problem=mixed beam	!	!	!	!	!	!	!	!	!	!	!	!	!	!
8GG/L	.	8b\L	.	8r	.	.	.	.	.	.	.	.	.	.
8G\J	.	8dd\J	.	8bb\	.	.	.	.	.	.	.	.	.	.
=4	=4	=4	=4	=4	=4	=4	=4	=4	=4	=4	=4	=4	=4	=4
8r	.	8r	.	16aa\LL	.	.	.	1ryy	1ryy	1ryy	1ryy	1ryy	1ryy	1ryy
.	.	.	.	16cc#X\JJ	.	.	.	.	.	.	.	.	.	.
.	.	.	.	8qqcc#/	.	.	.	.	.	.	.	.	.	.
(8F#\L	.	(8a/L	.	4dd\	.	.	.	.	.	.	.	.	.	.
8E\	.	8g/	.	.	.	.	.	.	.	.	.	.	.	.
8D\J)	.	8f#/J)	.	8bb\	.	.	.	.	.	.	.	.	.	.
8r	.	8r	.	16aa\LL	.	.	.	.	.	.	.	.	.	.
!	!	!	!	!LO:SIC:s=16cc#JJ	!	!	!	!	!	!	!	!	!	!
.	.	.	.	16cc#X\JJ	.	.	.	.	.	.	.	.	.	.
.	.	.	.	8qqcc#/	.	.	.	.	.	.	.	.	.	.
!	!	!LO:SIC:s=(8aL	!	!	!	!	!	!	!	!	!	!	!	!
(8F#\L	.	8a/L	.	4dd\	.	.	.	.	.	.	.	.	.	.
8E\	.	8g/	.	.	.	.	.	.	.	.	.	.	.	.
!	!	!LO:SIC:s=8f#J)	!	!	!	!	!	!	!	!	!	!	!	!
8D\J)	.	8f#/J	.	8dd\	.	.	.	.	.	.	.	.	.	.
=5	=5	=5	=5	=5	=5	=5	=5	=5	=5	=5	=5	=5	=5	=5
*	*	*Xtuplet	*	*	*	*	*	*	*	*	*	*	*	*
!	!	!	!	!LO:TUP:a:problem=kropka zamiast numeru	!	!	!	!	!	!	!	!	!	!
8AA/L	.	(24a\LL	.	(24cc#X\LL	.	00r	.	1ryy	1ryy	1ryy	1ryy	1ryy	1ryy	1ryy
.	.	24b\	.	24dd\	.	.	.	.	.	.	.	.	.	.
.	.	24cc#X\JJ)	.	24ee\JJ)	.	.	.	.	.	.	.	.	.	.
*	*	*tuplet	*	*	*	*	*	*	*	*	*	*	*	*
!	!	!LO:TUP:a:problem=kropka zamiast numeru	!	!LO:TUP:a:problem=kropka zamiast numeru	!	!	!	!	!	!	!	!	!	!
8AA/	.	(24cc#\LL	.	(24ee\LL	.	.	.	.	.	.	.	.	.	.
.	.	24dd\	.	24ff#\	.	.	.	.	.	.	.	.	.	.
.	.	24ee\JJ)	.	24gg\JJ)	.	.	.	.	.	.	.	.	.	.
!	!	!LO:SIC:s=16gg|LL	!	!	!	!	!	!	!	!	!	!	!	!
8AA/	.	16gg\LL	.	16bb\LL|	.	.	.	.	.	.	.	.	.	.
!	!	!LO:SIC:s=(16gg	!	!	!	!	!	!	!	!	!	!	!	!
.	.	16gg\	.	(16bb\	.	.	.	.	.	.	.	.	.	.
8AA/J	.	16ff#\	.	16aa\	.	.	.	.	.	.	.	.	.	.
!	!	!LO:SIC:s=16eeJJ)	!	!	!	!	!	!	!	!	!	!	!	!
.	.	16ee\JJ	.	16gg\JJ)	.	.	.	.	.	.	.	.	.	.
8D\L	.	8ee\L	.	8ggT\L	.	.	.	.	.	.	.	.	.	.
8D\	.	8dd\J	.	8ff#\J	.	.	.	.	.	.	.	.	.	.
8D\	.	(16f#/KL	.	(16aa\KL	.	.	.	.	.	.	.	.	.	.
.	.	8.a/J)	.	8.ccn\J)	.	.	.	.	.	.	.	.	.	.
8F#\J	.	.	.	.	.	.	.	.	.	.	.	.	.	.
!	!	!	!	!LO:LB:g=original	!	!	!	!	!	!	!	!	!	!
=6	=6	=6	=6	=6	=6	=6	=6	=6	=6	=6	=6	=6	=6	=6
!	!	!	!	!LO:SIC:s=(16bKL	!	!	!	!	!	!	!	!	!	!
!	!	!	!	!LO:TX:t=P:problem=mixed beam	!	!	!	!	!	!	!	!	!	!
8G\L	.	(16b\KL	.	16b/KL	.	.	.	1ryy	1ryy	1ryy	1ryy	1ryy	1ryy	1ryy
!	!	!	!	!LO:SIC:s=8.ggJ)	!	!	!	!	!	!	!	!	!	!
.	.	8.dd\J)	.	8.gg\J	.	.	.	.	.	.	.	.	.	.
8B\	.	.	.	.	.	.	.	.	.	.	.	.	.	.
8D\	.	(16f#/KL	.	(16aa\KL	.	.	.	.	.	.	.	.	.	.
.	.	8.a/J)	.	8.cc\J)	.	.	.	.	.	.	.	.	.	.
8F#\J	.	.	.	.	.	.	.	.	.	.	.	.	.	.
!	!	!	!	!LO:TX:t=P:problem=mixed beam	!	!	!	!	!	!	!	!	!	!
8G\L	.	8g\L	.	16b/LL	.	.	.	.	.	.	.	.	.	.
.	.	.	.	(16gg'\	.	.	.	.	.	.	.	.	.	.
8c\	.	8ee\	.	16gg'\	.	.	.	.	.	.	.	.	.	.
.	.	.	.	16gg'\JJ)	.	.	.	.	.	.	.	.	.	.
*	*	*	*	*tremolo	*	*	*	*	*	*	*	*	*	*
!	!	!	!	!LO:SIC:s=(16gg'L	!	!	!	!	!	!	!	!	!	!
8B\	.	8dd\	.	16gg'\L	.	.	.	.	.	.	.	.	.	.
.	.	.	.	16gg'\	.	.	.	.	.	.	.	.	.	.
8A\J	.	8cc\J	.	16gg'\	.	.	.	.	.	.	.	.	.	.
!	!	!	!	!LO:SIC:s=16gg'J)	!	!	!	!	!	!	!	!	!	!
.	.	.	.	16gg'\J	.	.	.	.	.	.	.	.	.	.
*	*	*	*	*Xtremolo	*	*	*	*	*	*	*	*	*	*
=7	=7	=7	=7	=7	=7	=7	=7	=7	=7	=7	=7	=7	=7	=7
!	!	!LO:SIC:s=(32bKLL	!	!	!	!	!	!	!	!	!	!	!	!
8G\L	.	32b\KLL	.	(32gg\KLL	.	.	.	1ryy	1ryy	1ryy	1ryy	1ryy	1ryy	1ryy
!	!	!LO:SIC:s=16.ee)	!	!LO:SIC:s=16.ee)	!	!	!	!	!	!	!	!	!	!
.	.	16.ee\	.	16.ee\JJ)	.	.	.	.	.	.	.	.	.	.
!	!	!LO:SIC:s=(32ddK	!	!LO:SIC:s=(32ddK	!	!	!	!	!	!	!	!	!	!
8C\	.	32dd\K	.	(32dd\KLL	.	.	.	.	.	.	.	.	.	.
!	!	!LO:SIC:s=16.ccJJ)	!	!	!	!	!	!	!	!	!	!	!	!
.	.	16.cc\JJ	.	16.cc\JJ)	.	.	.	.	.	.	.	.	.	.
!	!	!LO:SIC:s=(32bKLL	!	!LO:SIC:s=(32bKLL	!	!	!	!	!	!	!	!	!	!
8D\	.	32b\KLL	.	32b/KLL	.	.	.	.	.	.	.	.	.	.
!	!	!LO:SIC:s=16.a)	!	!LO:SIC:s=16.a)	!	!	!	!	!	!	!	!	!	!
.	.	16.a\	.	16.a/JJ	.	.	.	.	.	.	.	.	.	.
!	!	!LO:SIC:s=(32gK	!	!LO:SIC:s=(32gK	!	!	!	!	!	!	!	!	!	!
8D\J	.	32g\K	.	32g/KLL	.	.	.	.	.	.	.	.	.	.
!	!	!LO:SIC:s=16.f#JJ)	!	!LO:SIC:s=16.f#JJ)	!	!	!	!	!	!	!	!	!	!
.	.	16.f#\JJ	.	16.f#/JJ	.	.	.	.	.	.	.	.	.	.
!	!	!LO:LB:g=original	!	!	!	!	!	!	!	!	!	!	!	!
!	!LO:DY:a	!LO:TX:t=P:problem=mixed beam	!LO:DY:a:t=p.	!LO:TX:t=P:problem=mixed beam	!LO:DY:t=Pia	!	!	!	!	!	!	!	!	!
8GG/L	p	8g/L	p	16g/LL	p	.	.	.	.	.	.	.	.	.
.	.	.	.	(16gg'\	.	.	.	.	.	.	.	.	.	.
8C/	.	8ee\	.	16gg'\	.	.	.	.	.	.	.	.	.	.
.	.	.	.	16gg'\JJ)	.	.	.	.	.	.	.	.	.	.
*	*	*	*	*tremolo	*	*	*	*	*	*	*	*	*	*
!	!	!	!	!LO:SIC:s=(16gg'L	!	!	!	!	!	!	!	!	!	!
8BB/	.	8dd\	.	16gg'\L	.	.	.	.	.	.	.	.	.	.
.	.	.	.	16gg'\	.	.	.	.	.	.	.	.	.	.
8AA/J	.	8cc\J	.	16gg'\	.	.	.	.	.	.	.	.	.	.
.	.	.	.	16gg'\J)	.	.	.	.	.	.	.	.	.	.
*	*	*	*	*Xtremolo	*	*	*	*	*	*	*	*	*	*
=8	=8	=8	=8	=8	=8	=8	=8	=8	=8	=8	=8	=8	=8	=8
8GG/L	.	(32b\KLL	.	(32gg\KLL	.	.	.	1ryy	1ryy	1ryy	1ryy	1ryy	1ryy	1ryy
!	!	!	!	!LO:SIC:s=16.ee)	!	!	!	!	!	!	!	!	!	!
.	.	16.ee\)	.	16.ee\JJ)	.	.	.	.	.	.	.	.	.	.
!	!	!	!	!LO:SIC:s=(32ddK	!	!	!	!	!	!	!	!	!	!
8C/	.	(32dd\K	.	(32dd\KLL	.	.	.	.	.	.	.	.	.	.
.	.	16.cc\JJ)	.	16.cc\JJ)	.	.	.	.	.	.	.	.	.	.
8D/	.	(32b/KLL	.	(32b/KLL	.	.	.	.	.	.	.	.	.	.
!	!	!	!	!LO:SIC:s=16.a)	!	!	!	!	!	!	!	!	!	!
.	.	16.a/)	.	16.a/JJ)	.	.	.	.	.	.	.	.	.	.
!	!	!	!	!LO:SIC:s=(32gK	!	!	!	!	!	!	!	!	!	!
8D/J	.	(32g/K	.	(32g/KLL	.	.	.	.	.	.	.	.	.	.
.	.	16.f#/JJ)	.	16.f#/JJ)	.	.	.	.	.	.	.	.	.	.
!	!LO:MO:mod=!LO&colon;DY&colon;ed=brack	!	!LO:MO:mod=!LO&colon;DY&colon;ed=brack	!	!	!	!	!	!	!	!	!	!	!
!	!null	!	!null	!	!	!	!	!	!	!	!	!	!	!
!LO:LB:g=original	!LO:MO:null:mod=f	!	!LO:MO:null:mod=f	!	!LO:DY:t=for	!	!	!	!	!	!	!	!	!
8GG/L	.	(32bb\KLL	.	(32bb\KLL	f	.	.	.	.	.	.	.	.	.
!	!	!	!	!LO:SIC:s=16.gg)	!	!	!	!	!	!	!	!	!	!
.	.	16.gg\)	.	16.gg\JJ)	.	.	.	.	.	.	.	.	.	.
!	!	!	!	!LO:SIC:s=(32ff#K	!	!	!	!	!	!	!	!	!	!
8AA/	.	(32ff#\K	.	(32ff#\KLL	.	.	.	.	.	.	.	.	.	.
.	.	16.ee\JJ)	.	16.ee\JJ)	.	.	.	.	.	.	.	.	.	.
!	!	!	!	!LO:MO:mod=(32ddKLL	!	!	!	!	!	!	!	!	!	!
8BB/	.	(32dd\KLL	.	16dd\LL	.	.	.	.	.	.	.	.	.	.
!	!	!	!	!LO:MO:null:mod=16.ee)	!	!	!	!	!	!	!	!	!	!
.	.	16.ee\)	.	.	.	.	.	.	.	.	.	.	.	.
!	!	!	!	!LO:MO:mod=.	!	!	!	!	!	!	!	!	!	!
.	.	.	.	16ee\	.	.	.	.	.	.	.	.	.	.
!	!	!	!	!LO:MO:mod=(32ccK	!	!	!	!	!	!	!	!	!	!
8C/J	.	(32cc\K	.	16cc\	.	.	.	.	.	.	.	.	.	.
!	!	!	!	!LO:MO:null:mod=16.aJJ)	!	!	!	!	!	!	!	!	!	!
.	.	16.a\JJ)	.	.	.	.	.	.	.	.	.	.	.	.
!	!	!	!	!LO:MO:mod=.	!	!	!	!	!	!	!	!	!	!
.	.	.	.	16a\JJ	.	.	.	.	.	.	.	.	.	.
=9	=9	=9	=9	=9	=9	=9	=9	=9	=9	=9	=9	=9	=9	=9
4D\	.	4d/	.	4d/	.	1r	.	1ryy	1ryy	1ryy	1ryy	1ryy	1ryy	1ryy
!	!	!LO:SIC:s=4aT	!	!	!	!	!	!	!	!	!	!	!	!
4D\	.	4a/	.	4aT/	.	.	.	.	.	.	.	.	.	.
4GG;/	.	8g/L	.	8g/L	.	.	.	.	.	.	.	.	.	.
.	.	8d/J	.	8d/J	.	.	.	.	.	.	.	.	.	.
4r	.	4G;/	.	4G;/	.	.	.	.	.	.	.	.	.	.
=10	=10	=10	=10	=10	=10	=10	=10	=10	=10	=10	=10	=10	=10	=10
!	!LO:DY:a:rj	!	!LO:DY:a:t=p&colon;	!	!LO:DY:a:t=p&colon;	!LO:TX:a:i:mod= :t=Solo	!	!	!	!	!	!	!	!
8G\L	p	8b\L	p	4gg\	p	4g\	Be-	1ryy	1ryy	1ryy	1ryy	1ryy	1ryy	1ryy
8G\	.	8b\	.	.	.	.	.	.	.	.	.	.	.	.
*	*	*	*	*	*	*Xtuplet	*	*	*	*	*	*	*	*
!	!	!	!	!LO:TUP:a:problem=kropka zamiast numeru	!	!	!	!	!	!	!	!	!	!
8G\	.	8b\	.	(24gg\LL	.	24g\LL	.	.	.	.	.	.	.	.
.	.	.	.	24ff#\	.	24f#\	.	.	.	.	.	.	.	.
.	.	.	.	24ee\JJ)	.	24e\JJ	.	.	.	.	.	.	.	.
!	!	!	!	!LO:TUP:a:problem=kropka zamiast numeru	!	!	!	!	!	!	!	!	!	!
8G\J	.	8b\J	.	(24dd\LL	.	24d\LL	-ne-	.	.	.	.	.	.	.
.	.	.	.	24cc\	.	24c\	.	.	.	.	.	.	.	.
.	.	.	.	24b\JJ)	.	24B\JJ	.	.	.	.	.	.	.	.
!LO:TX:t=P:problem=mixed beam	!	!LO:TUP:a:problem=kropka zamiast numeru	!	!LO:TUP:a:problem=kropka zamiast numeru	!	!	!	!	!	!	!	!	!	!
8G\L	.	8cc\L	.	(24cc\LL	.	24c\LL	-di-	.	.	.	.	.	.	.
.	.	.	.	24dd\	.	24d\	.	.	.	.	.	.	.	.
.	.	.	.	24ee\J)	.	24e\JJ	.	.	.	.	.	.	.	.
8G\	.	8b\J	.	8dd\J	.	8d\	-ctus	.	.	.	.	.	.	.
8BB/	.	8d/L	.	8r	.	8r	.	.	.	.	.	.	.	.
8BB/J	.	8d/J	.	8g/	.	8G/	qui	.	.	.	.	.	.	.
=11	=11	=11	=11	=11	=11	=11	=11	=11	=11	=11	=11	=11	=11	=11
!	!	!	!	!LO:TUP:b:problem=kropka zamiast numeru	!	!	!	!	!	!	!	!	!	!
8C/L	.	8e/L	.	(24g/LL	.	24G/LL	ve-	1ryy	1ryy	1ryy	1ryy	1ryy	1ryy	1ryy
.	.	.	.	24a/	.	24A/	.	.	.	.	.	.	.	.
.	.	.	.	24b/JJ)	.	24B/JJ	.	.	.	.	.	.	.	.
!	!	!	!	!LO:TUP:a:problem=kropka zamiast numeru	!	!	!	!	!	!	!	!	!	!
8C/	.	8e/	.	(24cc\LL	.	24c\LL	.	.	.	.	.	.	.	.
.	.	.	.	24dd\	.	24d\	.	.	.	.	.	.	.	.
.	.	.	.	24ee\JJ)	.	24e\JJ	.	.	.	.	.	.	.	.
!	!	!	!	!LO:TUP:a:problem=kropka zamiast numeru	!	!	!	!	!	!	!	!	!	!
8D/	.	8f#/	.	(24dd\LL	.	24d\LL	.	.	.	.	.	.	.	.
.	.	.	.	24cc\	.	24c\	.	.	.	.	.	.	.	.
.	.	.	.	24b\JJ)	.	24B\JJ	.	.	.	.	.	.	.	.
!	!	!	!	!LO:TUP:b:problem=kropka zamiast numeru	!	!	!	!	!	!	!	!	!	!
8D/J	.	8f#/J	.	(24a/LL	.	24A/LL	.	.	.	.	.	.	.	.
.	.	.	.	24g/	.	24G/	.	.	.	.	.	.	.	.
.	.	.	.	24f#/JJ)	.	24F#/JJ	.	.	.	.	.	.	.	.
!	!	!	!	!LO:LB:g=original	!	!	!	!	!	!	!	!	!	!
!	!	!	!	!LO:TX:t=P:problem=mixed beam	!	!	!	!	!	!	!	!	!	!
8E\L	.	8g/L	.	8g/L	.	4G/	-nit	.	.	.	.	.	.	.
8E\	.	8g/	.	8gg\J	.	.	.	.	.	.	.	.	.	.
8BB\	.	8d/	.	4ggT\	.	4g\	qui	.	.	.	.	.	.	.
8BB\J	.	8d/J	.	.	.	.	.	.	.	.	.	.	.	.
=12	=12	=12	=12	=12	=12	=12	=12	=12	=12	=12	=12	=12	=12	=12
!	!	!	!	!LO:TUP:b:problem=kropka zamiast numeru	!	!	!LO:SIC:s=ve-	!	!	!	!	!	!	!
8C/L	.	8e/L	.	(24g/LL	.	24G/LL	vi-	1ryy	1ryy	1ryy	1ryy	1ryy	1ryy	1ryy
.	.	.	.	24a/	.	24A/	.	.	.	.	.	.	.	.
.	.	.	.	24b/JJ)	.	24B/JJ	.	.	.	.	.	.	.	.
!	!	!	!	!LO:TUP:a:problem=kropka zamiast numeru	!	!	!	!	!	!	!	!	!	!
8C/	.	8e/	.	(24cc\LL	.	24c\LL	.	.	.	.	.	.	.	.
.	.	.	.	24dd\	.	24d\	.	.	.	.	.	.	.	.
.	.	.	.	24ee\JJ)	.	24e\JJ	.	.	.	.	.	.	.	.
!	!	!	!	!LO:TUP:a:problem=kropka zamiast numeru	!	!	!	!	!	!	!	!	!	!
8D/	.	8f#/	.	(24dd\LL	.	24d\LL	.	.	.	.	.	.	.	.
.	.	.	.	24cc\	.	24c\	.	.	.	.	.	.	.	.
.	.	.	.	24b\JJ)	.	24B\JJ	.	.	.	.	.	.	.	.
!	!	!	!	!LO:TUP:b:problem=kropka zamiast numeru	!	!	!	!	!	!	!	!	!	!
8D/J	.	8f#/J	.	(24a/LL	.	24A/LL	.	.	.	.	.	.	.	.
.	.	.	.	24g/	.	24G/	.	.	.	.	.	.	.	.
.	.	.	.	24f#/JJ)	.	24F#/JJ	.	.	.	.	.	.	.	.
!LO:TX:t=P:problem=mixed beam	!	!	!	!LO:TX:t=P:problem=mixed beam	!	!	!	!	!	!	!	!	!	!
8GG/L	.	8g/L	.	8g/L	.	4G/	-nit	.	.	.	.	.	.	.
8G\	.	8b/	.	8dd\	.	.	.	.	.	.	.	.	.	.
8G\	.	8b/	.	8dd\	.	4r	.	.	.	.	.	.	.	.
8G\J	.	8b/J	.	8dd\J	.	.	.	.	.	.	.	.	.	.
!	!	!	!	!	!	!LO:LB:g=original	!	!	!	!	!	!	!	!
=13	=13	=13	=13	=13	=13	=13	=13	=13	=13	=13	=13	=13	=13	=13
*2\right	*	*	*	*	*	*	*	*	*	*	*	*	*	*
*tremolo	*	*	*	*	*	*	*	*	*	*	*	*	*	*
8G\L	.	8cc\L	.	8ee\L	.	4e\	Be-	1ryy	1ryy	1ryy	1ryy	1ryy	1ryy	1ryy
8G\	.	8cc\	.	8ee\	.	.	.	.	.	.	.	.	.	.
8G\	.	8cc\	.	8ee\	.	(16e\LL	.	.	.	.	.	.	.	.
.	.	.	.	.	.	16c\JJ)	.	.	.	.	.	.	.	.
8G\J	.	8cc\J	.	8ee\J	.	(16g\LL	-ne-	.	.	.	.	.	.	.
.	.	.	.	.	.	16e\JJ)	.	.	.	.	.	.	.	.
8G\L	.	8cc\L	.	8ee\L	.	8e\	-di-	.	.	.	.	.	.	.
8G\	.	8b\	.	8dd\	.	8d\	-ctus	.	.	.	.	.	.	.
8G\	.	8b\	.	8dd\	.	8r	.	.	.	.	.	.	.	.
8G\J	.	8b\J	.	8dd\J	.	8g\	qui	.	.	.	.	.	.	.
=14	=14	=14	=14	=14	=14	=14	=14	=14	=14	=14	=14	=14	=14	=14
!	!	!	!	!	!	!	!LO:SIC:s=ve-	!	!	!	!	!	!	!
8D/L	.	8a/L	.	8cc\L	.	16a\LL	vi-	1ryy	1ryy	1ryy	1ryy	1ryy	1ryy	1ryy
.	.	.	.	.	.	16f#\JJ	.	.	.	.	.	.	.	.
.	.	.	.	.	.	8qqd/	.	.	.	.	.	.	.	.
8D/	.	8a/	.	8cc\	.	4.c\	.	.	.	.	.	.	.	.
8D/	.	8a/	.	8cc\	.	.	.	.	.	.	.	.	.	.
8D/J	.	8a/J	.	8cc\J	.	.	.	.	.	.	.	.	.	.
*Xtremolo	*	*	*	*	*	*	*	*	*	*	*	*	*	*
8G\L	.	8g/	.	8b\	.	8B\	-nit	.	.	.	.	.	.	.
!	!	!	!	!	!	!	!LO:SIC:s=in	!	!	!	!	!	!	!
8G\	.	4ee\	.	4gg\	.	8g\	im	.	.	.	.	.	.	.
!	!	!	!	!	!	!LO:SIC:s=(16gLL	!	!	!	!	!	!	!	!
8C#\	.	.	.	.	.	16g\LL	no-	.	.	.	.	.	.	.
!	!	!	!	!	!	!LO:SIC:s=16eJJ)	!	!	!	!	!	!	!	!
.	.	.	.	.	.	16e\JJ	.	.	.	.	.	.	.	.
!LO:TX:a:mod= :t=d	!	!	!	!	!	!	!	!	!	!	!	!	!	!
8D\J	.	8dd\	.	8ff#\	.	16f#\	-mi-	.	.	.	.	.	.	.
.	.	.	.	.	.	16d\	-ne	.	.	.	.	.	.	.
!	!	!LO:LB:g=original	!	!	!	!	!	!	!	!	!	!	!	!
=15	=15	=15	=15	=15	=15	=15	=15	=15	=15	=15	=15	=15	=15	=15
*tremolo	*	*	*	*	*	*	*	*	*	*	*	*	*	*
8A\L	.	16r	.	16r	.	(16c#X\KL	Do-	1ryy	1ryy	1ryy	1ryy	1ryy	1ryy	1ryy
.	.	(16cc#X'\LL	.	(16ee'\LL	.	8.e\J)	.	.	.	.	.	.	.	.
8A\	.	16cc#'\	.	16ee'\	.	.	.	.	.	.	.	.	.	.
.	.	16cc#'\JJ)	.	16ee'\JJ)	.	.	.	.	.	.	.	.	.	.
8A\	.	16r	.	16r	.	(16d\KL	.	.	.	.	.	.	.	.
.	.	(16dd'\LL	.	(16ff#'\LL	.	8.f#\J)	.	.	.	.	.	.	.	.
8A\J	.	16dd'\	.	16ff#'\	.	.	.	.	.	.	.	.	.	.
.	.	16dd'\JJ)	.	16ff#'\JJ)	.	.	.	.	.	.	.	.	.	.
8A\L	.	16r	.	16r	.	(16e\KL	.	.	.	.	.	.	.	.
!	!	!	!	!LO:SIC:s=(16gg'LL	!	!	!	!	!	!	!	!	!	!
.	.	(16ee'\LL	.	16gg'\LL	.	8.g\J)	.	.	.	.	.	.	.	.
8A\	.	16ee'\	.	16gg'\	.	.	.	.	.	.	.	.	.	.
!	!	!	!	!LO:SIC:s=16gg'JJ)	!	!	!	!	!	!	!	!	!	!
.	.	16ee'\JJ)	.	16gg'\JJ	.	.	.	.	.	.	.	.	.	.
8A\	.	16r	.	16r	.	(16f#\KL	.	.	.	.	.	.	.	.
!	!	!	!	!LO:SIC:s=(16aa'LL	!	!	!	!	!	!	!	!	!	!
.	.	(16ff#'\LL	.	16aa'\LL	.	8.a\J)	.	.	.	.	.	.	.	.
8A\J	.	16ff#'\	.	16aa'\	.	.	.	.	.	.	.	.	.	.
!	!	!	!	!LO:SIC:s=16aa'JJ)	!	!	!	!	!	!	!	!	!	!
.	.	16ff#'\JJ)	.	16aa'\JJ	.	.	.	.	.	.	.	.	.	.
*Xtremolo	*	*	*	*	*	*	*	*	*	*	*	*	*	*
=16	=16	=16	=16	=16	=16	=16	=16	=16	=16	=16	=16	=16	=16	=16
!LO:TX:t=P:problem=mixed beam	!	!LO:SIC:v:s=8a/L	!	!	!	!	!	!	!	!	!	!	!	!
8D\L	.	8g/L	.	8ff#\L	.	16f#\LL	.	1ryy	1ryy	1ryy	1ryy	1ryy	1ryy	1ryy
.	.	.	.	.	.	16d\	.	.	.	.	.	.	.	.
8G\	.	8g/J	.	8ee\J	.	16e\	.	.	.	.	.	.	.	.
!	!	!	!	!	!	!LO:SIC:v:s=16c#JJ	!	!	!	!	!	!	!	!
.	.	.	.	.	.	16c\JJ	.	.	.	.	.	.	.	.
.	.	8qqf#/	.	8qqdd/	.	.	.	.	.	.	.	.	.	.
!	!	!	!	!	!	!LO:SIC:s=8.c#	!	!	!	!	!	!	!	!
8A\	.	4e/	.	4cc#X\	.	8.c#X\	.	.	.	.	.	.	.	.
8AA/J	.	.	.	.	.	.	.	.	.	.	.	.	.	.
.	.	.	.	.	.	16c#\	-mi-	.	.	.	.	.	.	.
8D\L	.	8f#/L	.	8dd\L	.	8d\	-ni	.	.	.	.	.	.	.
8D\	.	8a/J	.	8ff#\J	.	8f#\	in	.	.	.	.	.	.	.
!	!	!	!	!	!	!LO:SIC:s=(16f#LL	!	!	!	!	!	!	!	!
8G\	.	(16a/LL	.	(16ff#\LL	.	16f#\LL	no-	.	.	.	.	.	.	.
!	!	!	!	!	!	!LO:SIC:s=16eJJ)	!	!	!	!	!	!	!	!
.	.	16g/)	.	16ee\)	.	16e\JJ	.	.	.	.	.	.	.	.
8G\J	.	(16g/	.	(16ee\	.	16e\	-mi-	.	.	.	.	.	.	.
.	.	16f#/JJ)	.	16dd\JJ)	.	16d\	-ne	.	.	.	.	.	.	.
!LO:LB:g=original	!	!	!	!	!	!	!	!	!	!	!	!	!	!
=17	=17	=17	=17	=17	=17	=17	=17	=17	=17	=17	=17	=17	=17	=17
!	!	!LO:MO:null:mod=*tremolo	!	!	!	!	!	!	!	!	!	!	!	!
*	*	*null	*	*tremolo	*	*	*	*	*	*	*	*	*	*
!LO:TX:t=P:problem=mixed beam	!	!	!	!LO:SIC:v:s=(16cc#'\L	!	!	!	!	!	!	!	!	!	!
8A\L	.	(16e'/LL	.	(16cc'\L	.	(16c#X\KL	Do-	1ryy	1ryy	1ryy	1ryy	1ryy	1ryy	1ryy
!	!	!	!	!LO:SIC:v:s=16cc#'\	!	!	!	!	!	!	!	!	!	!
.	.	16e'/	.	16cc'\	.	8.A\J)	.	.	.	.	.	.	.	.
!	!	!	!	!LO:SIC:v:s=16cc#'\	!	!	!	!	!	!	!	!	!	!
8AA/	.	16e'/	.	16cc'\	.	.	.	.	.	.	.	.	.	.
!	!	!	!	!LO:SIC:v:s=16cc#'\J)	!	!	!	!	!	!	!	!	!	!
.	.	16e'/JJ)	.	16cc'\J)	.	.	.	.	.	.	.	.	.	.
!	!	!	!	!	!	!LO:LB:g=original	!	!	!	!	!	!	!	!
8AA/	.	(16f#'/LL	.	(16dd'\L	.	(16d\KL	.	.	.	.	.	.	.	.
.	.	16f#'/	.	16dd'\	.	8.A\J)	.	.	.	.	.	.	.	.
8AA/J	.	16f#'/	.	16dd'\	.	.	.	.	.	.	.	.	.	.
.	.	16f#'/JJ)	.	16dd'\J)	.	.	.	.	.	.	.	.	.	.
*tremolo	*	*	*	*	*	*	*	*	*	*	*	*	*	*
8AA/L	.	(16cc#X'\LL	.	(16ee'\L	.	(16e\KL	.	.	.	.	.	.	.	.
.	.	16cc#'\	.	16ee'\	.	8.A\J)	.	.	.	.	.	.	.	.
8AA/	.	16cc#'\	.	16ee'\	.	.	.	.	.	.	.	.	.	.
.	.	16cc#'\JJ)	.	16ee'\J)	.	.	.	.	.	.	.	.	.	.
8AA/	.	(16dd'\LL	.	(16ff#'\L	.	(16f#\KL	.	.	.	.	.	.	.	.
.	.	16dd'\	.	16ff#'\	.	8.A\J)	.	.	.	.	.	.	.	.
8AA/J	.	16dd'\	.	16ff#'\	.	.	.	.	.	.	.	.	.	.
.	.	16dd'\JJ)	.	16ff#'\J)	.	.	.	.	.	.	.	.	.	.
!	!	!LO:MO:null:mod=*Xtremolo	!	!	!	!	!	!	!	!	!	!	!	!
*Xtremolo	*	*null	*	*Xtremolo	*	*	*	*	*	*	*	*	*	*
!	!	!	!	!LO:LB:g=original	!	!	!	!	!	!	!	!	!	!
=18	=18	=18	=18	=18	=18	=18	=18	=18	=18	=18	=18	=18	=18	=18
8AA/L	.	8ee\	.	4gg\	.	4g\	.	1ryy	1ryy	1ryy	1ryy	1ryy	1ryy	1ryy
8AA/	.	4ee\	.	.	.	.	.	.	.	.	.	.	.	.
8C#X/	.	.	.	8gg\L	.	16g\LL	.	.	.	.	.	.	.	.
.	.	.	.	.	.	16e\	.	.	.	.	.	.	.	.
8D/J	.	8dd\	.	8ff#\J	.	16f#\	.	.	.	.	.	.	.	.
.	.	.	.	.	.	16d\JJ	.	.	.	.	.	.	.	.
!	!	!	!	!LO:SIC:s=8ee|L	!	!	!	!	!	!	!	!	!	!
8A\L	.	8cc#X\L|	.	8ee\L	.	8c#X\L	.	.	.	.	.	.	.	.
!	!	!	!	!LO:SIC:s=(8ee	!	!	!	!	!	!	!	!	!	!
8G\	.	(8cc#\	.	8ee\	.	16B\L	.	.	.	.	.	.	.	.
.	.	.	.	.	.	16A\JJ	.	.	.	.	.	.	.	.
8F#\	.	8dd\	.	8ff#\	.	8d\L	.	.	.	.	.	.	.	.
!	!	!	!	!LO:SIC:s=8ggJ)	!	!	!	!	!	!	!	!	!	!
8G\J	.	8ee\J)	.	8gg\J	.	8e\J	.	.	.	.	.	.	.	.
=19	=19	=19	=19	=19	=19	=19	=19	=19	=19	=19	=19	=19	=19	=19
!LO:TX:t=P:problem=mixed beam	!	!	!	!	!	!	!	!	!	!	!	!	!	!
8A\L	.	4dd\	.	4ff#\	.	4d\	.	1ryy	1ryy	1ryy	1ryy	1ryy	1ryy	1ryy
8A\	.	.	.	.	.	.	.	.	.	.	.	.	.	.
8AA/	.	4cc#X\	.	4eeT\	.	8.e\	.	.	.	.	.	.	.	.
8AA/J	.	.	.	.	.	.	.	.	.	.	.	.	.	.
.	.	.	.	.	.	16e\	-mi-	.	.	.	.	.	.	.
!	!	!	!LO:DY:t=for	!	!	!	!	!	!	!	!	!	!	!
!LO:SIC:s=8D|L	!LO:MO:null:mod=f	!	!LO:DY:a	!	!LO:DY:t=for	!	!	!	!	!	!	!	!	!
8D\L	.	8dd\L|	f	(16dd'\LL	f	4d\	-ni	.	.	.	.	.	.	.
.	.	.	.	16dd'\	.	.	.	.	.	.	.	.	.	.
!LO:SIC:s=(8G	!LO:DY:a:t=f&colon;	!	!	!	!	!	!	!	!	!	!	!	!	!
!	!LO:MO:mod=.	!	!	!	!	!	!	!	!	!	!	!	!	!
8G\	f	(8b\	.	16dd'\	.	.	.	.	.	.	.	.	.	.
.	.	.	.	16dd'\JJ)	.	.	.	.	.	.	.	.	.	.
8F#\	.	8a\	.	(16dd'\LL	.	4r	.	.	.	.	.	.	.	.
.	.	.	.	16dd'\	.	.	.	.	.	.	.	.	.	.
!LO:SIC:s=8EJ)	!	!	!	!	!	!	!	!	!	!	!	!	!	!
8E\J	.	8g\J)	.	16dd'\	.	.	.	.	.	.	.	.	.	.
.	.	.	.	16dd'\JJ)	.	.	.	.	.	.	.	.	.	.
=20	=20	=20	=20	=20	=20	=20	=20	=20	=20	=20	=20	=20	=20	=20
!LO:TX:t=P:problem=mixed beam	!	!LO:SIC:s=(32f#KLL	!	!	!	!	!	!	!	!	!	!	!	!
8D\L	.	32f#/KLL	.	(32dd\KLL	.	0r	.	1ryy	1ryy	1ryy	1ryy	1ryy	1ryy	1ryy
!	!	!LO:SIC:s=16.b)	!	!	!	!	!	!	!	!	!	!	!	!
.	.	16.b/	.	16.b\)	.	.	.	.	.	.	.	.	.	.
!	!	!LO:SIC:s=(32aK	!	!	!	!	!	!	!	!	!	!	!	!
8G\	.	32a/K	.	(32a\K	.	.	.	.	.	.	.	.	.	.
!	!	!LO:SIC:s=16.gJJ)	!	!	!	!	!	!	!	!	!	!	!	!
.	.	16.g/JJ	.	16.g\JJ)	.	.	.	.	.	.	.	.	.	.
!	!	!LO:SIC:s=(32f#KLL	!	!LO:SIC:s=(32f#KLL	!	!	!	!	!	!	!	!	!	!
8A\	.	32f#/KLL	.	32f#/KLL	.	.	.	.	.	.	.	.	.	.
!	!	!LO:SIC:s=16.e)	!	!LO:SIC:s=16.e)	!	!	!	!	!	!	!	!	!	!
.	.	16.e/	.	16.e/	.	.	.	.	.	.	.	.	.	.
!	!	!LO:SIC:s=(32dK	!	!LO:SIC:s=(32dK	!	!	!	!	!	!	!	!	!	!
8AA/J	.	32d/K	.	32d/K	.	.	.	.	.	.	.	.	.	.
!	!	!LO:SIC:s=16.c#JJ)	!	!LO:SIC:v:s=16.c#/JJ)	!	!	!	!	!	!	!	!	!	!
.	.	16.c#X/JJ	.	16.c/JJ	.	.	.	.	.	.	.	.	.	.
!	!	!LO:LB:g=original	!	!	!	!	!	!	!	!	!	!	!	!
!	!	!LO:SIC:s=8d|L	!	!	!	!	!	!	!	!	!	!	!	!
!LO:SIC:s=8D|L	!LO:DY:a:t=p&colon;	!LO:TX:t=P:problem=mixed beam	!LO:DY:a:t=pia	!LO:TX:t=P:problem=mixed beam	!LO:DY:a:t=p&colon;	!	!	!	!	!	!	!	!	!
8D\L	p	8d/L	p	16d/LL	p	.	.	.	.	.	.	.	.	.
.	.	.	.	(16dd'\	.	.	.	.	.	.	.	.	.	.
!LO:SIC:s=(8G	!	!	!	!	!	!	!	!	!	!	!	!	!	!
8G\	.	(8b\	.	16dd'\	.	.	.	.	.	.	.	.	.	.
.	.	.	.	16dd'\JJ)	.	.	.	.	.	.	.	.	.	.
8F#\	.	8a\	.	(16dd'\LL	.	.	.	.	.	.	.	.	.	.
.	.	.	.	16dd'\	.	.	.	.	.	.	.	.	.	.
!LO:SIC:s=8EJ)	!	!	!	!	!	!	!	!	!	!	!	!	!	!
8E\J	.	8g\J)	.	16dd'\	.	.	.	.	.	.	.	.	.	.
.	.	.	.	16dd'\JJ)	.	.	.	.	.	.	.	.	.	.
=21	=21	=21	=21	=21	=21	=21	=21	=21	=21	=21	=21	=21	=21	=21
!LO:TX:t=P:problem=mixed beam	!	!LO:SIC:s=(32f#KLL	!	!	!	!	!	!	!	!	!	!	!	!
8D\L	.	32f#/KLL	.	(32dd\KLL	.	.	.	1ryy	1ryy	1ryy	1ryy	1ryy	1ryy	1ryy
!	!	!LO:SIC:s=16.b)	!	!LO:SIC:s=16.b)	!	!	!	!	!	!	!	!	!	!
.	.	16.b/JJ	.	16.b\JJ)	.	.	.	.	.	.	.	.	.	.
!	!	!LO:SIC:s=(32aK	!	!LO:SIC:s=(32aK	!	!	!	!	!	!	!	!	!	!
!	!	!LO:TX:t=P:problem=mixed beam	!	!LO:TX:t=P:problem=mixed beam	!	!	!	!	!	!	!	!	!	!
8G\	.	32a/KLL	.	32a/KLL	.	.	.	.	.	.	.	.	.	.
!	!	!LO:SIC:s=16.ggJJ)	!	!LO:SIC:s=16.ggJJ)	!	!	!	!	!	!	!	!	!	!
.	.	16.gg\JJ	.	16.gg\JJ	.	.	.	.	.	.	.	.	.	.
8A\	.	(32ff#\KLL	.	(32ff#\KLL	.	.	.	.	.	.	.	.	.	.
.	.	16.ee\)	.	16.ee\)	.	.	.	.	.	.	.	.	.	.
8AA/J	.	(32dd\K	.	(32dd\K	.	.	.	.	.	.	.	.	.	.
!	!	!LO:SIC:v:s=16.cc#\JJ)	!	!	!	!	!	!	!	!	!	!	!	!
.	.	16.cc\JJ)	.	16.cc#X\JJ)	.	.	.	.	.	.	.	.	.	.
!	!	!	!LO:MO:mod=!LO&colon;DY&colon;ed=brack	!	!	!	!	!	!	!	!	!	!	!
!	!	!	!null	!	!	!	!	!	!	!	!	!	!	!
!	!LO:DY:a	!	!LO:MO:null:mod=f	!	!LO:DY:t=for	!	!	!	!	!	!	!	!	!
8E\L	f	(32ff#\KLL	.	(32ff#\KLL	f	.	.	.	.	.	.	.	.	.
!	!	!	!	!LO:SIC:s=16.dd)	!	!	!	!	!	!	!	!	!	!
.	.	16.dd\)	.	16.dd\JJ)	.	.	.	.	.	.	.	.	.	.
!	!	!LO:SIC:v:s=(32cc#\K	!	!LO:SIC:s=(32cc#K	!	!	!	!	!	!	!	!	!	!
8E\	.	(32cc\K	.	(32cc#X\KLL	.	.	.	.	.	.	.	.	.	.
.	.	16.b\JJ)	.	16.b\JJ)	.	.	.	.	.	.	.	.	.	.
!	!	!LO:SIC:s=(32aKLL	!	!	!	!	!	!	!	!	!	!	!	!
8F#\	.	32a/KLL	.	(32a/KLL	.	.	.	.	.	.	.	.	.	.
!	!	!LO:SIC:s=16.b)	!	!LO:SIC:s=16.b)	!	!	!	!	!	!	!	!	!	!
.	.	16.b/	.	16.b/JJ)	.	.	.	.	.	.	.	.	.	.
!	!	!LO:SIC:s=(32gK	!	!LO:SIC:s=(32gK	!	!	!	!	!	!	!	!	!	!
8G\J	.	32g/K	.	(32g/KLL	.	.	.	.	.	.	.	.	.	.
!	!	!LO:SIC:s=16.eJJ)	!	!	!	!	!	!	!	!	!	!	!	!
.	.	16.e/JJ	.	16.e/JJ)	.	.	.	.	.	.	.	.	.	.
=22	=22	=22	=22	=22	=22	=22	=22	=22	=22	=22	=22	=22	=22	=22
!LO:TX:t=P:problem=mixed beam	!	!	!	!	!	!	!	!	!	!	!	!	!	!
8A\L	.	4A/	.	4A/	.	1r	.	1ryy	1ryy	1ryy	1ryy	1ryy	1ryy	1ryy
8A\	.	.	.	.	.	.	.	.	.	.	.	.	.	.
!	!	!LO:SIC:s=4eT	!	!	!	!	!	!	!	!	!	!	!	!
8AA/	.	4e/	.	4eT/	.	.	.	.	.	.	.	.	.	.
8AA/J	.	.	.	.	.	.	.	.	.	.	.	.	.	.
4D\	.	8d/L	.	8d/L	.	.	.	.	.	.	.	.	.	.
.	.	8A/J	.	8A/J	.	.	.	.	.	.	.	.	.	.
4r	.	4d/	.	4d/	.	.	.	.	.	.	.	.	.	.
=23	=23	=23	=23	=23	=23	=23	=23	=23	=23	=23	=23	=23	=23	=23
!	!	!	!	!	!LO:MO:mod=!LO&colon;DY&colon;ed=brack	!	!	!	!	!	!	!	!	!
!	!	!	!	!	!null	!	!	!	!	!	!	!	!	!
!	!LO:DY:a:t=p&colon;	!	!LO:DY:a:t=pia	!	!LO:MO:null:mod=p	!	!	!	!	!	!	!	!	!
8D\L	p	8f#/L	p	4dd\	.	4d\	Be-	1ryy	1ryy	1ryy	1ryy	1ryy	1ryy	1ryy
8D\	.	8f#/	.	.	.	.	.	.	.	.	.	.	.	.
!	!	!	!	!LO:TUP:a:problem=kropka zamiast numeru	!	!	!	!	!	!	!	!	!	!
8D\	.	8f#/	.	(24dd\LL	.	24d\LL	.	.	.	.	.	.	.	.
.	.	.	.	24cc#X\	.	24c#X\	.	.	.	.	.	.	.	.
.	.	.	.	24b\JJ)	.	24B\JJ	.	.	.	.	.	.	.	.
*	*	*	*	*Xtuplet	*	*	*	*	*	*	*	*	*	*
8D\J	.	8f#/J	.	(24a/LL	.	24A\LL	-ne-	.	.	.	.	.	.	.
.	.	.	.	24g/	.	24G\	.	.	.	.	.	.	.	.
.	.	.	.	24f#/JJ)	.	24F#\JJ	.	.	.	.	.	.	.	.
!	!	!	!	!LO:SIC:s=(24gLL	!	!	!	!	!	!	!	!	!	!
8D\L	.	8g/L	.	24g/LL	.	24G/LL	-di-	.	.	.	.	.	.	.
.	.	.	.	24a/	.	24A/	.	.	.	.	.	.	.	.
!	!	!	!	!LO:SIC:s=24bJ)	!	!	!	!	!	!	!	!	!	!
.	.	.	.	24b/J	.	24B/JJ	.	.	.	.	.	.	.	.
8D\	.	8f#/	.	8a/J	.	8A/	-ctus	.	.	.	.	.	.	.
8F#\	.	8a/	.	8r	.	8r	.	.	.	.	.	.	.	.
8F#\J	.	8a/J	.	8dd\	.	8d\	qui	.	.	.	.	.	.	.
!	!	!	!	!LO:LB:g=original	!	!	!	!	!	!	!	!	!	!
=24	=24	=24	=24	=24	=24	=24	=24	=24	=24	=24	=24	=24	=24	=24
*	*	*	*	*tuplet	*	*tuplet	*	*	*	*	*	*	*	*
!	!	!	!	!	!	!LO:SIC:s=24dLL	!	!	!	!	!	!	!	!
!	!	!	!	!LO:TUP:a:problem=kropka zamiast numeru	!	!LO:TUP:a:problem=kropka zamiast numeru	!LO:SIC:s=ve-	!	!	!	!	!	!	!
8G\L	.	8b\L	.	(24dd\LL	.	(24d\LL	vi-	1ryy	1ryy	1ryy	1ryy	1ryy	1ryy	1ryy
.	.	.	.	24ee\	.	24e\	.	.	.	.	.	.	.	.
!	!	!	!	!	!	!LO:SIC:s=24f#JJ	!	!	!	!	!	!	!	!
.	.	.	.	24ff#\JJ)	.	24f#\JJ)	.	.	.	.	.	.	.	.
!	!	!	!	!	!	!LO:SIC:s=24gLL	!	!	!	!	!	!	!	!
!	!	!	!	!LO:TUP:a:problem=kropka zamiast numeru	!	!LO:TUP:a:problem=kropka zamiast numeru	!	!	!	!	!	!	!	!
8G\	.	8b\	.	(24gg\LL	.	(24g\LL	.	.	.	.	.	.	.	.
.	.	.	.	24aa\	.	24a\	.	.	.	.	.	.	.	.
!	!	!	!	!	!	!LO:SIC:s=24bJJ	!	!	!	!	!	!	!	!
.	.	.	.	24bb\JJ)	.	24b\JJ)	.	.	.	.	.	.	.	.
!	!	!	!	!	!	!LO:SIC:s=24aLL	!	!	!	!	!	!	!	!
!	!	!	!	!LO:TUP:a:problem=kropka zamiast numeru	!	!LO:TUP:a:problem=kropka zamiast numeru	!	!	!	!	!	!	!	!
8A\	.	8cc#X\	.	(24aa\LL	.	(24a\LL	.	.	.	.	.	.	.	.
.	.	.	.	24gg\	.	24g\	.	.	.	.	.	.	.	.
!	!	!	!	!	!	!LO:SIC:s=24f#JJ	!	!	!	!	!	!	!	!
.	.	.	.	24ff#\JJ)	.	24f#\JJ)	.	.	.	.	.	.	.	.
*	*	*	*	*Xtuplet	*	*	*	*	*	*	*	*	*	*
!	!	!	!	!	!	!LO:SIC:s=24eLL	!	!	!	!	!	!	!	!
!	!	!	!	!LO:SIC:s=(24eeLL	!	!LO:TUP:a:problem=kropka zamiast numeru	!	!	!	!	!	!	!	!
8A\J	.	8cc#\J	.	24ee\LL	.	(24e\LL	.	.	.	.	.	.	.	.
.	.	.	.	24dd\	.	24d\	.	.	.	.	.	.	.	.
!	!	!	!	!LO:SIC:s=24cc#JJ)	!	!LO:SIC:s=24c#JJ	!	!	!	!	!	!	!	!
.	.	.	.	24cc#X\JJ	.	24c#X\JJ)	.	.	.	.	.	.	.	.
.	.	.	.	8qqcc#/	.	.	.	.	.	.	.	.	.	.
!	!	!	!	!	!	!LO:LB:g=original	!	!	!	!	!	!	!	!
8B\L	.	8dd\L	.	4dd\	.	4d\	-nit	.	.	.	.	.	.	.
8B\	.	8a\	.	.	.	.	.	.	.	.	.	.	.	.
8F#\	.	8a\	.	8r	.	4d\	qui	.	.	.	.	.	.	.
8F#\J	.	8a\J	.	8dd\	.	.	.	.	.	.	.	.	.	.
=25	=25	=25	=25	=25	=25	=25	=25	=25	=25	=25	=25	=25	=25	=25
*	*	*	*	*tuplet	*	*	*	*	*	*	*	*	*	*
!	!	!	!	!	!	!LO:SIC:s=24dLL	!	!	!	!	!	!	!	!
!	!	!LO:TX:t=P:problem=brak taktu nr 25	!	!LO:TUP:a:problem=kropka zamiast numeru	!	!LO:TUP:a:problem=kropka zamiast numeru	!	!	!	!	!	!	!	!
8G\L	.	1ryy	.	(24dd\LL	.	(24d\LL	ve-	1ryy	1ryy	1ryy	1ryy	1ryy	1ryy	1ryy
.	.	.	.	24ee\	.	24e\	.	.	.	.	.	.	.	.
!	!	!	!	!	!	!LO:SIC:s=24f#JJ	!	!	!	!	!	!	!	!
.	.	.	.	24ff#\JJ)	.	24f#\JJ)	.	.	.	.	.	.	.	.
!	!	!	!	!	!	!LO:SIC:s=24gLL	!	!	!	!	!	!	!	!
!	!	!	!	!LO:TUP:a:problem=kropka zamiast numeru	!	!LO:TUP:a:problem=kropka zamiast numeru	!	!	!	!	!	!	!	!
8G\	.	.	.	(24gg\LL	.	(24g\LL	.	.	.	.	.	.	.	.
.	.	.	.	24aa\	.	24a\	.	.	.	.	.	.	.	.
!	!	!	!	!	!	!LO:SIC:s=24bJJ	!	!	!	!	!	!	!	!
.	.	.	.	24bb\JJ)	.	24b\JJ)	.	.	.	.	.	.	.	.
!	!	!	!	!	!	!LO:SIC:s=24aLL	!	!	!	!	!	!	!	!
!	!	!	!	!LO:TUP:a:problem=kropka zamiast numeru	!	!LO:TUP:a:problem=kropka zamiast numeru	!	!	!	!	!	!	!	!
8A\	.	.	.	(24aa\LL	.	(24a\LL	.	.	.	.	.	.	.	.
.	.	.	.	24gg\	.	24g\	.	.	.	.	.	.	.	.
!	!	!	!	!	!	!LO:SIC:s=24f#JJ	!	!	!	!	!	!	!	!
.	.	.	.	24ff#\JJ)	.	24f#\JJ)	.	.	.	.	.	.	.	.
!	!	!	!	!	!	!LO:SIC:s=24eLL	!	!	!	!	!	!	!	!
!	!	!	!	!LO:TUP:a:problem=kropka zamiast numeru	!	!LO:TUP:a:problem=kropka zamiast numeru	!	!	!	!	!	!	!	!
8A\J	.	.	.	(24ee\LL	.	(24e\LL	.	.	.	.	.	.	.	.
.	.	.	.	24dd\	.	24d\	.	.	.	.	.	.	.	.
!	!	!	!	!	!	!LO:SIC:v:s=24c#\JJ	!	!	!	!	!	!	!	!
.	.	.	.	24cc#X\JJ)	.	24c\JJ)	.	.	.	.	.	.	.	.
*tremolo	*	*	*	*	*	*	*	*	*	*	*	*	*	*
!LO:LB:g=original	!	!	!	!	!	!	!	!	!	!	!	!	!	!
8D/L	.	.	.	8dd\L	.	4d\	-nit	.	.	.	.	.	.	.
8D/	.	.	.	8ff#\	.	.	.	.	.	.	.	.	.	.
8D/	.	.	.	8ff#\	.	4r	.	.	.	.	.	.	.	.
8D/J	.	.	.	8ff#\J	.	.	.	.	.	.	.	.	.	.
*	*	*Xtremolo	*	*	*	*	*	*	*	*	*	*	*	*
=26	=26	=26	=26	=26	=26	=26	=26	=26	=26	=26	=26	=26	=26	=26
*	*	*	*	*2\right	*	*	*	*	*	*	*	*	*	*
*	*	*tremolo	*	*tremolo	*	*	*	*	*	*	*	*	*	*
8D/L	.	8a/L	.	8ff#\L	.	4d\	be-	1ryy	1ryy	1ryy	1ryy	1ryy	1ryy	1ryy
8D/	.	8a/	.	8ff#\	.	.	.	.	.	.	.	.	.	.
8D/	.	8a/	.	8ff#\	.	(16d\LL	.	.	.	.	.	.	.	.
.	.	.	.	.	.	16f#\JJ)	.	.	.	.	.	.	.	.
!	!	!	!	!	!	!LO:SIC:s=(16aLL	!	!	!	!	!	!	!	!
8D/J	.	8a/J	.	8ff#\J	.	16a\LL	-ne-	.	.	.	.	.	.	.
!	!	!	!	!	!	!LO:SIC:s=16f#JJ)	!	!	!	!	!	!	!	!
.	.	.	.	.	.	16f#\JJ	.	.	.	.	.	.	.	.
*	*	*2\right	*	*	*	*	*	*	*	*	*	*	*	*
!	!	!	!	!	!	!LO:SIC:s=(16eLL	!	!	!	!	!	!	!	!
8A\L	.	8cc#X\L	.	8ee\L	.	16f#\LL	-di-	.	.	.	.	.	.	.
!	!	!	!	!	!	!LO:SIC:s=16c#JJ)	!	!	!	!	!	!	!	!
.	.	.	.	.	.	16c#X\JJ	.	.	.	.	.	.	.	.
!	!	!	!	!	!	!	!LO:SIC:s=-ctus	!	!	!	!	!	!	!
8A\	.	8cc#\	.	8ee\	.	8A/	-tus	.	.	.	.	.	.	.
8A\	.	8cc#\	.	8ee\	.	8r	.	.	.	.	.	.	.	.
8A\J	.	8cc#\J	.	8ee\J	.	8a\	qui	.	.	.	.	.	.	.
*	*	*Xtremolo	*	*Xtremolo	*	*	*	*	*	*	*	*	*	*
=27	=27	=27	=27	=27	=27	=27	=27	=27	=27	=27	=27	=27	=27	=27
8E\L	.	8r	.	8r	.	16a\KL	ve-	1ryy	1ryy	1ryy	1ryy	1ryy	1ryy	1ryy
.	.	.	.	.	.	8.g#X\J	.	.	.	.	.	.	.	.
8E\	.	8b\L	.	8dd\L	.	.	.	.	.	.	.	.	.	.
8E\	.	8b\	.	8dd\	.	16f#\KL	.	.	.	.	.	.	.	.
.	.	.	.	.	.	8.d\J	.	.	.	.	.	.	.	.
8E\J	.	8b\J	.	8dd\J	.	.	.	.	.	.	.	.	.	.
*	*	*	*	*tremolo	*	*	*	*	*	*	*	*	*	*
8AA/L	.	8a/L	.	8cc#X\L	.	16c#X\LL	-nit	.	.	.	.	.	.	.
!	!	!	!	!	!	!LO:SIC:s=16dJ	!	!	!	!	!	!	!	!
.	.	.	.	.	.	16d\JJ	.	.	.	.	.	.	.	.
!	!	!	!	!	!	!LO:SIC:s=8eJ	!	!	!	!	!	!	!	!
8AA/	.	8e/	.	8cc#\	.	8e\	.	.	.	.	.	.	.	.
8AA/	.	8e/	.	8cc#\	.	8r	.	.	.	.	.	.	.	.
8AA/J	.	8e/J	.	8cc#\J	.	8a\	qui	.	.	.	.	.	.	.
*Xtremolo	*	*	*	*Xtremolo	*	*	*	*	*	*	*	*	*	*
=28	=28	=28	=28	=28	=28	=28	=28	=28	=28	=28	=28	=28	=28	=28
8r	.	8r	.	8r	.	16a\KL	ve-	1ryy	1ryy	1ryy	1ryy	1ryy	1ryy	1ryy
.	.	.	.	.	.	8.g#X\J	.	.	.	.	.	.	.	.
8E\L	.	8d/L	.	8b\L	.	.	.	.	.	.	.	.	.	.
8E\	.	8d/	.	8b\	.	16f#\KL	.	.	.	.	.	.	.	.
.	.	.	.	.	.	8.d\J	.	.	.	.	.	.	.	.
8E\J	.	8d/J	.	8b\J	.	.	.	.	.	.	.	.	.	.
!LO:TX:t=P:problem=mixed beam	!	!LO:LB:g=original	!	!	!	!LO:SIC:s=8dL	!	!	!	!	!	!	!	!
8AA/L	.	8d/L	.	8b\L	.	8d\	-nit	.	.	.	.	.	.	.
!	!	!LO:SIC:s=8c#	!	!	!	!LO:SIC:v:s=8c#J	!	!	!	!	!	!	!	!
8AA/	.	8c#X/J	.	8a\	.	8c\	.	.	.	.	.	.	.	.
!	!	!LO:SIC:v:s=8cc#\	!	!	!	!	!	!	!	!	!	!	!	!
8A\	.	8cc\L	.	8ee\	.	8r	.	.	.	.	.	.	.	.
!	!	!LO:SIC:v:s=8cc#\J	!	!	!	!	!	!	!	!	!	!	!	!
8A\J	.	8cc\J	.	8ee\J	.	8e\	in	.	.	.	.	.	.	.
!	!	!	!	!	!	!LO:LB:g=original	!	!	!	!	!	!	!	!
=29	=29	=29	=29	=29	=29	=29	=29	=29	=29	=29	=29	=29	=29	=29
*tremolo	*	*tremolo	*	*tremolo	*	*	*	*	*	*	*	*	*	*
8D/L	.	8a/L	.	8ff#\L	.	4f#\	no-	1ryy	1ryy	1ryy	1ryy	1ryy	1ryy	1ryy
8D/	.	8a/	.	8ff#\	.	.	.	.	.	.	.	.	.	.
8D/	.	8a/	.	8ff#\	.	32f#\KLL	.	.	.	.	.	.	.	.
.	.	.	.	.	.	16.d\JJ	.	.	.	.	.	.	.	.
!	!	!	!	!	!	!LO:SIC:s=(16BLL	!	!	!	!	!	!	!	!
8D/J	.	8a/J	.	8ff#\J	.	16B\LL	-mi-	.	.	.	.	.	.	.
!	!	!	!	!	!	!LO:SIC:s=16A#JJ)	!	!	!	!	!	!	!	!
.	.	.	.	.	.	16A#X\JJ	.	.	.	.	.	.	.	.
!	!	!	!	!	!	!LO:SIC:s=(16BLL	!	!	!	!	!	!	!	!
8D/L	.	8a/L	.	8ff#\L	.	16B\LL	-ne	.	.	.	.	.	.	.
!	!	!	!	!	!	!LO:SIC:s=16f#JJ)	!	!	!	!	!	!	!	!
.	.	.	.	.	.	16f#\JJ	.	.	.	.	.	.	.	.
8D/	.	8a/	.	8ff#\	.	4f#\	Do-	.	.	.	.	.	.	.
8D/	.	8a/	.	8ff#\	.	.	.	.	.	.	.	.	.	.
8D/J	.	8a/J	.	8ff#\J	.	16e\LL	.	.	.	.	.	.	.	.
.	.	.	.	.	.	16d\JJ	.	.	.	.	.	.	.	.
=30	=30	=30	=30	=30	=30	=30	=30	=30	=30	=30	=30	=30	=30	=30
8C#X/L	.	8a/L	.	8ee\L	.	4e\	.	1ryy	1ryy	1ryy	1ryy	1ryy	1ryy	1ryy
8C#/	.	8a/	.	8ee\	.	.	.	.	.	.	.	.	.	.
8C#/	.	8a/	.	8ee\	.	16e\LL	.	.	.	.	.	.	.	.
.	.	.	.	.	.	16c#X\JJ	.	.	.	.	.	.	.	.
8C#/J	.	8a/J	.	8ee\J	.	16An\LL	.	.	.	.	.	.	.	.
.	.	.	.	.	.	16G#X\JJ	.	.	.	.	.	.	.	.
8C#/L	.	8a/L	.	8ee\L	.	16A\LL	.	.	.	.	.	.	.	.
.	.	.	.	.	.	16e\JJ	.	.	.	.	.	.	.	.
8C#/	.	8a/	.	8ee\	.	4e\	.	.	.	.	.	.	.	.
8C#/	.	8a/	.	8ee\	.	.	.	.	.	.	.	.	.	.
8C#/J	.	8a/J	.	8ee\J	.	16d\LL	.	.	.	.	.	.	.	.
.	.	.	.	.	.	16c#X\JJ	.	.	.	.	.	.	.	.
!	!	!	!	!LO:LB:g=original	!	!	!	!	!	!	!	!	!	!
=31	=31	=31	=31	=31	=31	=31	=31	=31	=31	=31	=31	=31	=31	=31
8BB/L	.	8g#X/L	.	8dd\L	.	4d\	.	1ryy	1ryy	1ryy	1ryy	1ryy	1ryy	1ryy
8BB/	.	8g#/	.	8dd\	.	.	.	.	.	.	.	.	.	.
!	!	!	!	!	!	!LO:N:vis=16	!	!	!	!	!	!	!	!
8BB/	.	8g#/	.	8dd\	.	32d\KLL	.	.	.	.	.	.	.	.
!	!	!	!	!	!	!LO:N:vis=8.	!	!	!	!	!	!	!	!
.	.	.	.	.	.	16.B\JJ	.	.	.	.	.	.	.	.
!	!	!	!	!	!	!LO:N:vis=16	!	!	!	!	!	!	!	!
8BB/J	.	8g#/J	.	8dd\J	.	32G#X/KLL	.	.	.	.	.	.	.	.
!	!	!	!	!	!	!LO:N:vis=8.	!	!	!	!	!	!	!	!
.	.	.	.	.	.	16.F#/JJ	.	.	.	.	.	.	.	.
!	!	!	!	!	!	!LO:TX:t=P:problem=mixed beam	!	!	!	!	!	!	!	!
8E\L	.	8b\L	.	8dd\L	.	16E/LL	.	.	.	.	.	.	.	.
.	.	.	.	.	.	16d\JJ	.	.	.	.	.	.	.	.
8E\	.	8b\	.	8dd\	.	4d\	.	.	.	.	.	.	.	.
8E\	.	8b\	.	8dd\	.	.	.	.	.	.	.	.	.	.
8E\J	.	8b\J	.	8dd\J	.	8d\	-mi-	.	.	.	.	.	.	.
*	*	*Xtremolo	*	*Xtremolo	*	*	*	*	*	*	*	*	*	*
=32	=32	=32	=32	=32	=32	=32	=32	=32	=32	=32	=32	=32	=32	=32
!	!	!	!	!	!	!LO:SIC:v:s=8c#\	!	!	!	!	!	!	!	!
8AA/L	.	8a\L	.	8cc#X\L	.	8c\	-ne	1ryy	1ryy	1ryy	1ryy	1ryy	1ryy	1ryy
8AA/	.	8cc#X\	.	8ee\	.	8e\	qui	.	.	.	.	.	.	.
.	.	.	.	.	.	8qqA/	.	.	.	.	.	.	.	.
8AA/	.	8cc#\	.	8ee\	.	4G/	.	.	.	.	.	.	.	.
8AA/J	.	8cc#\J	.	8ee\J	.	.	.	.	.	.	.	.	.	.
*Xtremolo	*	*	*	*	*	*	*	*	*	*	*	*	*	*
4D\	.	4dd\	.	4dd\	.	8F#/	ve-	.	.	.	.	.	.	.
.	.	.	.	.	.	8d\	-nit	.	.	.	.	.	.	.
8r	.	8r	.	8r	.	8d\	no-	.	.	.	.	.	.	.
8G\	.	8ee\	.	8gg\	.	16g\	-mi-	.	.	.	.	.	.	.
.	.	.	.	.	.	16e\	-ne	.	.	.	.	.	.	.
!	!	!	!	!	!	!LO:LB:g=original	!	!	!	!	!	!	!	!
=33	=33	=33	=33	=33	=33	=33	=33	=33	=33	=33	=33	=33	=33	=33
!LO:TX:t=P:problem=mixed beam	!	!	!	!	!	!	!	!	!	!	!	!	!	!
8A\L	.	8dd\L	.	8ff#\L	.	4d\	Do-	1ryy	1ryy	1ryy	1ryy	1ryy	1ryy	1ryy
8A\	.	8dd\	.	8ff#\	.	.	.	.	.	.	.	.	.	.
8AA/	.	8cc#X\	.	8ee\	.	8.e\	.	.	.	.	.	.	.	.
8AA/J	.	8cc#\J	.	8ee\J	.	.	.	.	.	.	.	.	.	.
.	.	.	.	.	.	16e\	-mi-	.	.	.	.	.	.	.
*	*	*	*	*tremolo	*	*	*	*	*	*	*	*	*	*
!LO:SIC:s=8D|L	!	!LO:SIC:s=8dd|L	!	!	!	!	!	!	!	!	!	!	!	!
8D\L	.	8dd\L	.	8dd\L	.	8d\	-ni	.	.	.	.	.	.	.
!LO:SIC:s=(8F#	!	!	!	!	!	!	!	!	!	!	!	!	!	!
8F#\	.	(8a\	.	8dd\	.	8d\	in	.	.	.	.	.	.	.
8E\	.	8g\	.	8dd\	.	8d\	no-	.	.	.	.	.	.	.
!LO:SIC:s=8DJ)	!	!	!	!	!	!	!	!	!	!	!	!	!	!
8D\J	.	8f#\J)	.	8dd\J	.	16d\	-mi-	.	.	.	.	.	.	.
.	.	.	.	.	.	16d\	-ne	.	.	.	.	.	.	.
*	*	*	*	*Xtremolo	*	*	*	*	*	*	*	*	*	*
=34	=34	=34	=34	=34	=34	=34	=34	=34	=34	=34	=34	=34	=34	=34
!	!	!LO:TUP:a:problem=kropka zamiast numeru	!	!LO:TUP:a:problem=kropka zamiast numeru	!	!LO:TUP:a:problem=kropka zamiast numeru	!	!	!	!	!	!	!	!
8C#X/L	.	(24a\LL	.	(24cc#X\LL	.	24c#X\LL	Do-	1ryy	1ryy	1ryy	1ryy	1ryy	1ryy	1ryy
.	.	24b\	.	24dd\	.	24d\	.	.	.	.	.	.	.	.
.	.	24cc#X\JJ)	.	24ee\JJ)	.	24e\JJ	.	.	.	.	.	.	.	.
!	!	!LO:TUP:a:problem=kropka zamiast numeru	!	!LO:TUP:a:problem=kropka zamiast numeru	!	!LO:TUP:a:problem=kropka zamiast numeru	!	!	!	!	!	!	!	!
8AA/	.	(24cc#\LL	.	(24ee\LL	.	24e\LL	.	.	.	.	.	.	.	.
.	.	24dd\	.	24ff#\	.	24f#\	.	.	.	.	.	.	.	.
.	.	24ee\JJ)	.	24gg\JJ)	.	24g\JJ	.	.	.	.	.	.	.	.
!	!	!LO:SIC:s=16gg|LL	!	!	!	!	!	!	!	!	!	!	!	!
8AA/	.	16gg\LL	.	16bb\LL|	.	8g\	.	.	.	.	.	.	.	.
!	!	!LO:SIC:s=(16gg	!	!	!	!	!	!	!	!	!	!	!	!
.	.	16gg\	.	(16bb\	.	.	.	.	.	.	.	.	.	.
8AA/J	.	16ff#\	.	16aa\	.	8g\	-mi-	.	.	.	.	.	.	.
!	!	!LO:SIC:s=16eeJJ)	!	!	!	!	!	!	!	!	!	!	!	!
.	.	16ee\JJ	.	16gg\JJ)	.	.	.	.	.	.	.	.	.	.
4D\	.	8ee\L	.	8gg\L	.	8g\L	-ni	.	.	.	.	.	.	.
.	.	8dd\J	.	8ff#\J	.	8f#\J	.	.	.	.	.	.	.	.
!	!	!LO:SIC:s=(16f#KL	!	!	!	!	!	!	!	!	!	!	!	!
8D\L	.	16f#/KL	.	(16aa\KL	.	4cn\	qui	.	.	.	.	.	.	.
!	!	!LO:SIC:s=8.aJ)	!	!	!	!	!	!	!	!	!	!	!	!
.	.	8.a/J	.	8.ccn\J)	.	.	.	.	.	.	.	.	.	.
8F#\J	.	.	.	.	.	.	.	.	.	.	.	.	.	.
=35	=35	=35	=35	=35	=35	=35	=35	=35	=35	=35	=35	=35	=35	=35
!	!	!	!	!LO:TX:t=P:problem=mixed beam	!	!	!	!	!	!	!	!	!	!
8G\L	.	(16g\KL	.	(16b/KL	.	8B\L	ve-	1ryy	1ryy	1ryy	1ryy	1ryy	1ryy	1ryy
.	.	8.dd\J)	.	8.gg\J)	.	.	.	.	.	.	.	.	.	.
8B\	.	.	.	.	.	8d\J	.	.	.	.	.	.	.	.
!	!	!	!	!	!	!LO:SIC:s=4c	!	!	!	!	!	!	!	!
8D\	.	(16f#/KL	.	(16aa\KL	.	4cn\	-nit	.	.	.	.	.	.	.
.	.	8.a/J)	.	8.cc\J)	.	.	.	.	.	.	.	.	.	.
8F#\J	.	.	.	.	.	.	.	.	.	.	.	.	.	.
!LO:SIC:s=8G|L	!	!LO:SIC:s=8g|L	!	!	!	!	!	!	!	!	!	!	!	!
!LO:LB:g=original	!	!LO:TX:t=P:problem=mixed beam	!	!	!	!	!	!	!	!	!	!	!	!
8G\L	.	8g/L	.	16b\LL	.	8B\	.	.	.	.	.	.	.	.
!	!	!	!	!LO:SIC:s=(16gg'	!	!	!	!	!	!	!	!	!	!
.	.	.	.	(16gg|\	.	.	.	.	.	.	.	.	.	.
!LO:SIC:s=(8c	!	!	!	!	!	!	!	!	!	!	!	!	!	!
8c\	.	(8ee\	.	16gg'\	.	8g\	in	.	.	.	.	.	.	.
.	.	.	.	16gg'\JJ)	.	.	.	.	.	.	.	.	.	.
*	*	*	*	*tremolo	*	*	*	*	*	*	*	*	*	*
!	!	!	!	!LO:SIC:s=(16gg'L	!	!	!	!	!	!	!	!	!	!
8B\	.	8dd\	.	16gg'\L	.	8g\	no-	.	.	.	.	.	.	.
.	.	.	.	16gg'\	.	.	.	.	.	.	.	.	.	.
!LO:SIC:s=8AJ)	!	!	!	!	!	!	!	!	!	!	!	!	!	!
8A\J	.	8cc\J)	.	16gg'\	.	16g\	-mi-	.	.	.	.	.	.	.
!	!	!	!	!LO:SIC:s=16gg'J)	!	!	!	!	!	!	!	!	!	!
.	.	.	.	16gg'\J	.	16g\	-ne	.	.	.	.	.	.	.
*	*	*	*	*Xtremolo	*	*	*	*	*	*	*	*	*	*
=36	=36	=36	=36	=36	=36	=36	=36	=36	=36	=36	=36	=36	=36	=36
!	!	!	!	!	!	!LO:SIC:s=32gKLL	!	!	!	!	!	!	!	!
8G\L	.	(32b\KLL	.	(32gg\KLL	.	(32g\KLL	Do-	1ryy	1ryy	1ryy	1ryy	1ryy	1ryy	1ryy
!	!	!	!	!	!	!LO:SIC:s=16.e	!	!	!	!	!	!	!	!
.	.	16.ee\)	.	16.ee\)	.	16.e\)	.	.	.	.	.	.	.	.
!	!	!	!	!	!	!LO:SIC:s=32dK	!	!	!	!	!	!	!	!
8C\	.	(32dd\K	.	(32dd\K	.	(32d\K	.	.	.	.	.	.	.	.
!	!	!	!	!	!	!LO:SIC:s=16.cJJ	!	!	!	!	!	!	!	!
.	.	16.cc\JJ)	.	16.cc\JJ)	.	16.c\JJ)	.	.	.	.	.	.	.	.
!	!	!	!	!LO:SIC:s=(32bKLL	!	!	!	!	!	!	!	!	!	!
8D\	.	(32b/KLL	.	32b\KLL	.	32B\KLL	.	.	.	.	.	.	.	.
!	!	!	!	!LO:SIC:s=16.a)	!	!	!	!	!	!	!	!	!	!
.	.	16.a/)	.	16.a/JJ	.	16.A\	.	.	.	.	.	.	.	.
!	!	!	!	!LO:SIC:s=(32gK	!	!	!	!	!	!	!	!	!	!
8D\J	.	(32g/K	.	32g/KLL	.	32G\K	.	.	.	.	.	.	.	.
!	!	!	!	!LO:SIC:s=16.f#JJ)	!	!	!	!	!	!	!	!	!	!
.	.	16.f#/JJ)	.	16.f#/JJ	.	16.F#\JJ	.	.	.	.	.	.	.	.
!	!	!LO:SIC:s=8g|L	!	!	!	!	!	!	!	!	!	!	!	!
!	!	!LO:LB:g=original	!	!	!	!	!	!	!	!	!	!	!	!
!LO:SIC:s=8GG|L	!	!LO:TX:t=P:problem=mixed beam	!	!LO:TX:t=P:problem=mixed beam	!	!	!	!	!	!	!	!	!	!
8GG/L	.	8g/L	.	16g/LL	.	8G/	-mi-	.	.	.	.	.	.	.
.	.	.	.	(16gg'\	.	.	.	.	.	.	.	.	.	.
!LO:SIC:s=(8C	!	!	!	!	!	!	!	!	!	!	!	!	!	!
8C/	.	(8ee\	.	16gg'\	.	8g\	-ni	.	.	.	.	.	.	.
.	.	.	.	16gg'\JJ)	.	.	.	.	.	.	.	.	.	.
*	*	*	*	*tremolo	*	*	*	*	*	*	*	*	*	*
!	!	!	!	!LO:SIC:s=(16'ggL	!	!	!	!	!	!	!	!	!	!
8BB/	.	8dd\	.	16gg\L	.	8g\	in	.	.	.	.	.	.	.
!	!	!	!	!LO:SIC:s=16gg'	!	!	!	!	!	!	!	!	!	!
.	.	.	.	16gg\	.	.	.	.	.	.	.	.	.	.
!LO:SIC:s=8AAJ)	!	!	!	!LO:SIC:s=16gg'	!	!	!	!	!	!	!	!	!	!
8AA/J	.	8cc\J)	.	16gg\	.	16g\	no-	.	.	.	.	.	.	.
!	!	!	!	!LO:SIC:s=16gg'J)	!	!	!	!	!	!	!	!	!	!
.	.	.	.	16gg\J	.	16g\	-mi-	.	.	.	.	.	.	.
*	*	*	*	*Xtremolo	*	*	*	*	*	*	*	*	*	*
!	!	!	!	!LO:LB:g=original	!	!LO:LB:g=original	!	!	!	!	!	!	!	!
=37	=37	=37	=37	=37	=37	=37	=37	=37	=37	=37	=37	=37	=37	=37
8GG/L	.	(32b\KLL	.	(32gg\KLL	.	32g\KLL	-ne	1ryy	1ryy	1ryy	1ryy	1ryy	1ryy	1ryy
.	.	16.ee\)	.	16.ee\)	.	16.e\	.	.	.	.	.	.	.	.
8C/	.	(32dd\K	.	(32dd\K	.	32d\K	.	.	.	.	.	.	.	.
.	.	16.cc\JJ)	.	16.cc\JJ)	.	16.c\JJ	.	.	.	.	.	.	.	.
!	!	!	!	!	!	!	!LO:MO:mod=.	!	!	!	!	!	!	!
8D/	.	(32b/KLL	.	(32b\KLL	.	32B\KLL	Do-	.	.	.	.	.	.	.
.	.	16.a/)	.	16.a\)	.	16.A\	.	.	.	.	.	.	.	.
8D/J	.	(32g/K	.	(32g\K	.	32G\K	.	.	.	.	.	.	.	.
.	.	16.f#/JJ)	.	16.f#\JJ)	.	16.F#\JJ	.	.	.	.	.	.	.	.
!	!	!	!	!	!	!	!LO:MO:null:mod=Do-	!	!	!	!	!	!	!
8GG/L	.	(32bb\KLL	.	(32bb\KLL	.	32b\KLL	.	.	.	.	.	.	.	.
.	.	16.gg\)	.	16.gg\)	.	16.g\	.	.	.	.	.	.	.	.
8AA/	.	(32ff#\K	.	(32ff#\K	.	32f#\K	.	.	.	.	.	.	.	.
.	.	16.ee\JJ)	.	16.ee\JJ)	.	16.e\JJ	.	.	.	.	.	.	.	.
8BB/	.	(32dd\KLL	.	(32dd\KLL	.	32d\KLL	.	.	.	.	.	.	.	.
.	.	16.ee\)	.	16.ee\)	.	16.e\	.	.	.	.	.	.	.	.
8C/J	.	(32cc\K	.	(32cc\K	.	32c\K	.	.	.	.	.	.	.	.
.	.	16.a\JJ)	.	16.a\JJ)	.	16.A\JJ	.	.	.	.	.	.	.	.
=38	=38	=38	=38	=38	=38	=38	=38	=38	=38	=38	=38	=38	=38	=38
!	!	!LO:SIC:s=1d;	!	!	!	!	!	!	!	!	!	!	!	!
1D;	.	1d	.	1d;	.	2G;/	.	1ryy	1ryy	1ryy	1ryy	1ryy	1ryy	1ryy
.	.	.	.	.	.	4.A/	.	.	.	.	.	.	.	.
.	.	.	.	.	.	8A/	-mi-	.	.	.	.	.	.	.
!	!	!	!	!LO:LB:g=original	!	!	!	!	!	!	!	!	!	!
!LO:MO:mod==39||	!LO:MO:mod==39||	!LO:MO:mod==39||	!LO:MO:mod==39||	!LO:MO:mod==39||	!LO:MO:mod==39||	!LO:MO:mod==39||	!LO:MO:mod==39||	!LO:MO:mod==39||	!LO:MO:mod==39||	!LO:MO:mod==39||	!LO:MO:mod==39||	!LO:MO:mod==39||	!LO:MO:mod==39||	!LO:MO:mod==39||
=39	=39	=39	=39	=39	=39	=39	=39	=39	=39	=39	=39	=39	=39	=39
!LO:TX:a:i:mod= :t=Da Capo	!	!LO:TX:a:i:mod= :t=Da Capo	!	!LO:TX:a:i:mod= :t=Da Capo	!	!	!LO:SIC:s=-ni.	!	!	!	!	!	!	!
8G\Lyy	.	8b\Lyy	.	4gg\yy	.	4G/	-ni	1ryy	1ryy	1ryy	1ryy	1ryy	1ryy	1ryy
8G\yy	.	8b\yy	.	.	.	.	.	.	.	.	.	.	.	.
!	!	!	!	!LO:TUP:a:problem=kropka zamiast numeru	!	!	!	!	!	!	!	!	!	!
8G\yy	.	8b\yy	.	(24gg\LLyy	.	4r	.	.	.	.	.	.	.	.
.	.	.	.	24ff#\yy	.	.	.	.	.	.	.	.	.	.
.	.	.	.	24ee\JJ)yy	.	.	.	.	.	.	.	.	.	.
!	!	!	!	!LO:TUP:a:problem=kropka zamiast numeru	!	!	!	!	!	!	!	!	!	!
8G\Jyy	.	8b\Jyy	.	(24dd\LLyy	.	.	.	.	.	.	.	.	.	.
.	.	.	.	24cc\yy	.	.	.	.	.	.	.	.	.	.
.	.	.	.	24b\JJ)yy	.	.	.	.	.	.	.	.	.	.
!LO:TX:t=P:problem=mixed beam	!	!	!	!LO:TUP:a:problem=kropka zamiast numeru	!	!	!	!	!	!	!	!	!	!
8G\Lyy	.	8cc\Lyy	.	(24cc\LLyy	.	2r	.	.	.	.	.	.	.	.
.	.	.	.	24dd\yy	.	.	.	.	.	.	.	.	.	.
.	.	.	.	24ee\J)yy	.	.	.	.	.	.	.	.	.	.
8G\yy	.	8b\Jyy	.	8dd\Jyy	.	.	.	.	.	.	.	.	.	.
8BB\yy	.	8d/Lyy	.	8ryy	.	.	.	.	.	.	.	.	.	.
8BB\Jyy	.	8d/Jyy	.	8g/yy	.	.	.	.	.	.	.	.	.	.
=40	=40	=40	=40	=40	=40	=40	=40	=40	=40	=40	=40	=40	=40	=40
!	!	!	!	!LO:TUP:b:problem=kropka zamiast numeru	!	!	!	!	!	!	!	!	!	!
8C/Lyy	.	8e/Lyy	.	(24g/LLyy	.	1r	.	1ryy	1ryy	1ryy	1ryy	1ryy	1ryy	1ryy
.	.	.	.	24a/yy	.	.	.	.	.	.	.	.	.	.
.	.	.	.	24b/JJ)yy	.	.	.	.	.	.	.	.	.	.
!	!	!	!	!LO:TUP:a:problem=kropka zamiast numeru	!	!	!	!	!	!	!	!	!	!
8C/yy	.	8e/yy	.	(24cc\LLyy	.	.	.	.	.	.	.	.	.	.
.	.	.	.	24dd\yy	.	.	.	.	.	.	.	.	.	.
.	.	.	.	24ee\JJ)yy	.	.	.	.	.	.	.	.	.	.
!	!	!	!	!LO:TUP:a:problem=kropka zamiast numeru	!	!	!	!	!	!	!	!	!	!
8D/yy	.	8f#/yy	.	(24dd\LLyy	.	.	.	.	.	.	.	.	.	.
.	.	.	.	24cc\yy	.	.	.	.	.	.	.	.	.	.
.	.	.	.	24b\JJ)yy	.	.	.	.	.	.	.	.	.	.
!	!	!	!	!LO:TUP:a:problem=kropka zamiast numeru	!	!	!	!	!	!	!	!	!	!
8D/Jyy	.	8f#/Jyy	.	(24a/LLyy	.	.	.	.	.	.	.	.	.	.
.	.	.	.	24g/yy	.	.	.	.	.	.	.	.	.	.
.	.	.	.	24f#/JJ)yy	.	.	.	.	.	.	.	.	.	.
!	!	!	!	!LO:TX:t=P:problem=mixed beam	!	!	!	!	!	!	!	!	!	!
8E\Lyy	.	8g/Lyy	.	8g/Lyy	.	.	.	.	.	.	.	.	.	.
8E\yy	.	8g/yy	.	8gg\Jyy	.	.	.	.	.	.	.	.	.	.
8BB\yy	.	8d/yy	.	4ggT\yy	.	.	.	.	.	.	.	.	.	.
8BB\Jyy	.	8d/Jyy	.	.	.	.	.	.	.	.	.	.	.	.
=41	=41	=41	=41	=41	=41	=41	=41	=41	=41	=41	=41	=41	=41	=41
!	!	!	!	!LO:TUP:b:problem=kropka zamiast numeru	!	!	!	!	!	!	!	!	!	!
8C/Lyy	.	8e/Lyy	.	(24g/LLyy	.	1r	.	1ryy	1ryy	1ryy	1ryy	1ryy	1ryy	1ryy
.	.	.	.	24a/yy	.	.	.	.	.	.	.	.	.	.
.	.	.	.	24b/JJ)yy	.	.	.	.	.	.	.	.	.	.
!	!	!	!	!LO:TUP:a:problem=kropka zamiast numeru	!	!	!	!	!	!	!	!	!	!
8C/yy	.	8e/yy	.	(24cc\LLyy	.	.	.	.	.	.	.	.	.	.
.	.	.	.	24dd\yy	.	.	.	.	.	.	.	.	.	.
.	.	.	.	24ee\JJ)yy	.	.	.	.	.	.	.	.	.	.
!	!	!	!	!LO:TUP:a:problem=kropka zamiast numeru	!	!	!	!	!	!	!	!	!	!
8D/yy	.	8f#/yy	.	(24dd\LLyy	.	.	.	.	.	.	.	.	.	.
.	.	.	.	24cc\yy	.	.	.	.	.	.	.	.	.	.
.	.	.	.	24b\JJ)yy	.	.	.	.	.	.	.	.	.	.
!	!	!	!	!LO:TUP:b:problem=kropka zamiast numeru	!	!	!	!	!	!	!	!	!	!
8D/Jyy	.	8f#/Jyy	.	(24a/LLyy	.	.	.	.	.	.	.	.	.	.
.	.	.	.	24g/yy	.	.	.	.	.	.	.	.	.	.
.	.	.	.	24f#/JJ)yy	.	.	.	.	.	.	.	.	.	.
.	.	.	.	8qqf#/yy	.	.	.	.	.	.	.	.	.	.
!	!	!LO:TX:t=P:problem=mixed beam	!	!	!	!	!	!	!	!	!	!	!	!
8GG/Lyy	.	8g/Lyy	.	4g/yy	.	.	.	.	.	.	.	.	.	.
!LO:SIC:s=(16BBL	!	!	!	!	!	!	!	!	!	!	!	!	!	!
16BB/Lyy	.	(16dd\Lyy	.	.	.	.	.	.	.	.	.	.	.	.
!LO:SIC:s=16AAJJ)	!	!	!	!	!	!	!	!	!	!	!	!	!	!
16AA/JJyy	.	16cc\JJ)yy	.	.	.	.	.	.	.	.	.	.	.	.
!LO:TX:t=P:problem=mixed beam	!	!	!	!	!	!	!	!	!	!	!	!	!	!
8GG/Lyy	.	8b\Lyy	.	8ryy	.	.	.	.	.	.	.	.	.	.
8G/Jyy	.	8dd\Jyy	.	8bb\yy	.	.	.	.	.	.	.	.	.	.
=42	=42	=42	=42	=42	=42	=42	=42	=42	=42	=42	=42	=42	=42	=42
8ryy	.	8ryy	.	16aa\LLyy	.	1r	.	1ryy	1ryy	1ryy	1ryy	1ryy	1ryy	1ryy
.	.	.	.	16cc#X\JJyy	.	.	.	.	.	.	.	.	.	.
.	.	.	.	8qqcc#/yy	.	.	.	.	.	.	.	.	.	.
(8F#\Lyy	.	(8a/Lyy	.	4dd\yy	.	.	.	.	.	.	.	.	.	.
8E\yy	.	8g/yy	.	.	.	.	.	.	.	.	.	.	.	.
8D\J)yy	.	8f#/J)yy	.	8bb\yy	.	.	.	.	.	.	.	.	.	.
8ryy	.	8ryy	.	16aa\LLyy	.	.	.	.	.	.	.	.	.	.
.	.	.	.	16cc#X\JJyy	.	.	.	.	.	.	.	.	.	.
.	.	.	.	8qqcc#/yy	.	.	.	.	.	.	.	.	.	.
!	!	!LO:SIC:s=(8aL	!	!	!	!	!	!	!	!	!	!	!	!
(8F#\Lyy	.	8a/Lyy	.	4dd\yy	.	.	.	.	.	.	.	.	.	.
8E\yy	.	8g/yy	.	.	.	.	.	.	.	.	.	.	.	.
!	!	!LO:SIC:s=8f#J)	!	!	!	!	!	!	!	!	!	!	!	!
8D\J)yy	.	8f#/Jyy	.	8dd\yy	.	.	.	.	.	.	.	.	.	.
=43	=43	=43	=43	=43	=43	=43	=43	=43	=43	=43	=43	=43	=43	=43
*	*	*Xtuplet	*	*	*	*	*	*	*	*	*	*	*	*
!	!	!	!	!LO:TUP:a:problem=kropka zamiast numeru	!	!	!	!	!	!	!	!	!	!
8AA/Lyy	.	(24a\LLyy	.	(24cc#X\LLyy	.	1r	.	1ryy	1ryy	1ryy	1ryy	1ryy	1ryy	1ryy
.	.	24b\yy	.	24dd\yy	.	.	.	.	.	.	.	.	.	.
.	.	24cc#X\JJ)yy	.	24ee\JJ)yy	.	.	.	.	.	.	.	.	.	.
*	*	*tuplet	*	*	*	*	*	*	*	*	*	*	*	*
!	!	!LO:TUP:a:problem=kropka zamiast numeru	!	!LO:TUP:a:problem=kropka zamiast numeru	!	!	!	!	!	!	!	!	!	!
8AA/yy	.	(24cc#\LLyy	.	(24ee\LLyy	.	.	.	.	.	.	.	.	.	.
.	.	24dd\yy	.	24ff#\yy	.	.	.	.	.	.	.	.	.	.
.	.	24ee\JJ)yy	.	24gg\JJ)yy	.	.	.	.	.	.	.	.	.	.
!	!	!LO:SIC:s=(16gg|LL	!	!	!	!	!	!	!	!	!	!	!	!
8AA/yy	.	16gg\LLyy	.	16bb|\LLyy	.	.	.	.	.	.	.	.	.	.
!	!	!LO:SIC:s=(16gg	!	!	!	!	!	!	!	!	!	!	!	!
.	.	16gg\yy	.	(16bb\yy	.	.	.	.	.	.	.	.	.	.
8AA/Jyy	.	16ff#\yy	.	16aa\yy	.	.	.	.	.	.	.	.	.	.
!	!	!LO:SIC:s=16eeJJ)	!	!	!	!	!	!	!	!	!	!	!	!
.	.	16ee\JJyy	.	16gg\JJ)yy	.	.	.	.	.	.	.	.	.	.
8D\Lyy	.	8ee\Lyy	.	8ggT\Lyy	.	.	.	.	.	.	.	.	.	.
8D\yy	.	8dd\Jyy	.	8ff#\Jyy	.	.	.	.	.	.	.	.	.	.
8D\yy	.	(16f#/KLyy	.	(16aa\KLyy	.	.	.	.	.	.	.	.	.	.
.	.	8.a/J)yy	.	8.ccn\J)yy	.	.	.	.	.	.	.	.	.	.
8F#\Jyy	.	.	.	.	.	.	.	.	.	.	.	.	.	.
!	!	!	!	!LO:LB:g=original	!	!	!	!	!	!	!	!	!	!
=44	=44	=44	=44	=44	=44	=44	=44	=44	=44	=44	=44	=44	=44	=44
!	!	!	!	!LO:SIC:s=(16bKL	!	!	!	!	!	!	!	!	!	!
!	!	!	!	!LO:TX:t=P:problem=mixed beam	!	!	!	!	!	!	!	!	!	!
8G\Lyy	.	(16b\KLyy	.	16b/KLyy	.	1r	.	1ryy	1ryy	1ryy	1ryy	1ryy	1ryy	1ryy
!	!	!	!	!LO:SIC:s=8.ggJ)	!	!	!	!	!	!	!	!	!	!
.	.	8.dd\J)yy	.	8.gg\Jyy	.	.	.	.	.	.	.	.	.	.
8B\yy	.	.	.	.	.	.	.	.	.	.	.	.	.	.
8D\yy	.	(16f#/KLyy	.	(16aa\KLyy	.	.	.	.	.	.	.	.	.	.
.	.	8.a/J)yy	.	8.cc\J)yy	.	.	.	.	.	.	.	.	.	.
8F#\Jyy	.	.	.	.	.	.	.	.	.	.	.	.	.	.
!	!	!	!	!LO:TX:t=P:problem=mixed beam	!	!	!	!	!	!	!	!	!	!
8G\Lyy	.	8g\Lyy	.	16b/LLyy	.	.	.	.	.	.	.	.	.	.
.	.	.	.	(16gg'\yy	.	.	.	.	.	.	.	.	.	.
8c\yy	.	8ee\yy	.	16gg'\yy	.	.	.	.	.	.	.	.	.	.
.	.	.	.	16gg'\JJ)yy	.	.	.	.	.	.	.	.	.	.
*	*	*	*	*tremolo	*	*	*	*	*	*	*	*	*	*
!	!	!	!	!LO:SIC:s=(16gg'LL	!	!	!	!	!	!	!	!	!	!
8B\yy	.	8dd\yy	.	16gg'\LLyy	.	.	.	.	.	.	.	.	.	.
.	.	.	.	16gg'\yy	.	.	.	.	.	.	.	.	.	.
8A\Jyy	.	8cc\Jyy	.	16gg'\yy	.	.	.	.	.	.	.	.	.	.
!	!	!	!	!LO:SIC:s=16gg'JJ)	!	!	!	!	!	!	!	!	!	!
.	.	.	.	16gg'\JJyy	.	.	.	.	.	.	.	.	.	.
*	*	*	*	*Xtremolo	*	*	*	*	*	*	*	*	*	*
=45	=45	=45	=45	=45	=45	=45	=45	=45	=45	=45	=45	=45	=45	=45
!	!	!LO:SIC:s=(32bKLL	!	!	!	!	!	!	!	!	!	!	!	!
8G\Lyy	.	32b\KLLyy	.	(32gg\KLLyy	.	1r	.	1ryy	1ryy	1ryy	1ryy	1ryy	1ryy	1ryy
!	!	!LO:SIC:s=16.ee)	!	!LO:SIC:s=16.ee)	!	!	!	!	!	!	!	!	!	!
.	.	16.ee\yy	.	16.ee\JJ)yy	.	.	.	.	.	.	.	.	.	.
!	!	!LO:SIC:s=(32ddK	!	!LO:SIC:s=(32ddK	!	!	!	!	!	!	!	!	!	!
8C\yy	.	32dd\Kyy	.	(32dd\KLLyy	.	.	.	.	.	.	.	.	.	.
!	!	!LO:SIC:s=16.ccJJ)	!	!	!	!	!	!	!	!	!	!	!	!
.	.	16.cc\JJyy	.	16.cc\JJ)yy	.	.	.	.	.	.	.	.	.	.
!	!	!LO:SIC:s=(32bKLL	!	!LO:SIC:s=(32bKLL	!	!	!	!	!	!	!	!	!	!
8D\yy	.	32b\KLLyy	.	32b/KLLyy	.	.	.	.	.	.	.	.	.	.
!	!	!LO:SIC:s=16.a)	!	!LO:SIC:s=16.a)	!	!	!	!	!	!	!	!	!	!
.	.	16.a\yy	.	16.a/JJyy	.	.	.	.	.	.	.	.	.	.
!	!	!LO:SIC:s=(32gK	!	!LO:SIC:s=(32gK	!	!	!	!	!	!	!	!	!	!
8D\Jyy	.	32g\Kyy	.	32g/KLLyy	.	.	.	.	.	.	.	.	.	.
!	!	!LO:SIC:s=16.f#JJ)	!	!LO:SIC:s=16.f#JJ)	!	!	!	!	!	!	!	!	!	!
.	.	16.f#\JJyy	.	16.f#/JJyy	.	.	.	.	.	.	.	.	.	.
!	!LO:DY:a	!LO:LB:g=original	!LO:DY:a:t=p.	!LO:TX:t=P:problem=mixed beam	!LO:DY:t=Pia	!	!	!	!	!	!	!	!	!
!	!LO:MO:mod=p	!	!LO:MO:mod=p	!	!LO:MO:mod=p	!	!	!	!	!	!	!	!	!
8GG/Lyy	py	8g/Lyy	py	16g/LLyy	py	.	.	.	.	.	.	.	.	.
.	.	.	.	(16gg'\yy	.	.	.	.	.	.	.	.	.	.
8C/yy	.	8ee\yy	.	16gg'\yy	.	.	.	.	.	.	.	.	.	.
.	.	.	.	16gg'\JJ)yy	.	.	.	.	.	.	.	.	.	.
*	*	*	*	*tremolo	*	*	*	*	*	*	*	*	*	*
!	!	!	!	!LO:SIC:s=(16gg'LL	!	!	!	!	!	!	!	!	!	!
8BB/yy	.	8dd\yy	.	16gg'\LLyy	.	.	.	.	.	.	.	.	.	.
.	.	.	.	16gg'\yy	.	.	.	.	.	.	.	.	.	.
8AA/Jyy	.	8cc\Jyy	.	16gg'\yy	.	.	.	.	.	.	.	.	.	.
!	!	!	!	!LO:SIC:s=16gg'JJ)	!	!	!	!	!	!	!	!	!	!
.	.	.	.	16gg'\JJyy	.	.	.	.	.	.	.	.	.	.
*	*	*	*	*Xtremolo	*	*	*	*	*	*	*	*	*	*
=46	=46	=46	=46	=46	=46	=46	=46	=46	=46	=46	=46	=46	=46	=46
8GG/Lyy	.	(32b\KLLyy	.	(32gg\KLLyy	.	1r	.	1ryy	1ryy	1ryy	1ryy	1ryy	1ryy	1ryy
!	!	!	!	!LO:SIC:s=16.ee)	!	!	!	!	!	!	!	!	!	!
.	.	16.ee\)yy	.	16.ee\JJ)yy	.	.	.	.	.	.	.	.	.	.
!	!	!	!	!LO:SIC:s=(32ddK	!	!	!	!	!	!	!	!	!	!
8C/yy	.	(32dd\Kyy	.	(32dd\KLLyy	.	.	.	.	.	.	.	.	.	.
.	.	16.cc\JJ)yy	.	16.cc\JJ)yy	.	.	.	.	.	.	.	.	.	.
8D/y	.	(32b/KLLyy	.	(32b/KLLyy	.	.	.	.	.	.	.	.	.	.
!	!	!	!	!LO:SIC:s=16.a)	!	!	!	!	!	!	!	!	!	!
.	.	16.a/)yy	.	16.a/JJ)yy	.	.	.	.	.	.	.	.	.	.
!	!	!	!	!LO:SIC:s=(32gK	!	!	!	!	!	!	!	!	!	!
8D/Jyyy	.	(32g/Kyy	.	(32g/KLLyy	.	.	.	.	.	.	.	.	.	.
.	.	16.f#/JJ)yy	.	16.f#/JJ)yy	.	.	.	.	.	.	.	.	.	.
!	!LO:MO:mod=!LO&colon;DY&colon;ed=brack	!	!LO:MO:mod=!LO&colon;DY&colon;ed=brack	!	!	!	!	!	!	!	!	!	!	!
!LO:LB:g=original	!null	!	!null	!	!LO:DY:t=for	!	!	!	!	!	!	!	!	!
!	!LO:MO:null:mod=f	!	!LO:MO:null:mod=f	!	!LO:MO:mod=f	!	!	!	!	!	!	!	!	!
8GG/Lyy	.	(32bb\KLLyy	.	(32bb\KLLyy	fy	.	.	.	.	.	.	.	.	.
!	!	!	!	!LO:SIC:s=16.gg)	!	!	!	!	!	!	!	!	!	!
.	.	16.gg\)yy	.	16.gg\JJ)yy	.	.	.	.	.	.	.	.	.	.
!	!	!	!	!LO:SIC:s=(32ff#K	!	!	!	!	!	!	!	!	!	!
8AA/yy	.	(32ff#\Kyy	.	(32ff#\KLLyy	.	.	.	.	.	.	.	.	.	.
.	.	16.ee\JJ)yy	.	16.ee\JJ)yy	.	.	.	.	.	.	.	.	.	.
!	!	!	!	!LO:MO:mod=(32ddKLL	!	!	!	!	!	!	!	!	!	!
8BB/yy	.	(32dd\KLLyy	.	16dd\LLyy	.	.	.	.	.	.	.	.	.	.
!	!	!	!	!LO:MO:null:mod=16.ee)	!	!	!	!	!	!	!	!	!	!
.	.	16.ee\)yy	.	.	.	.	.	.	.	.	.	.	.	.
!	!	!	!	!LO:MO:mod=.	!	!	!	!	!	!	!	!	!	!
.	.	.	.	16ee\yy	.	.	.	.	.	.	.	.	.	.
!	!	!	!	!LO:MO:mod=(32cc	!	!	!	!	!	!	!	!	!	!
8C/Jyy	.	(32cc\Kyy	.	16cc\yy	.	.	.	.	.	.	.	.	.	.
!	!	!	!	!LO:MO:null:mod=16.aJJ)	!	!	!	!	!	!	!	!	!	!
.	.	16.a\JJ)yy	.	.	.	.	.	.	.	.	.	.	.	.
!	!	!	!	!LO:MO:mod=.	!	!	!	!	!	!	!	!	!	!
.	.	.	.	16a\JJyy	.	.	.	.	.	.	.	.	.	.
=47	=47	=47	=47	=47	=47	=47	=47	=47	=47	=47	=47	=47	=47	=47
4D\yy	.	4d/yy	.	4d/yy	.	1r	.	1r	1r	1r	1r	1r	1r	1ryy
!	!	!LO:SIC:s=4aT	!	!	!	!	!	!	!	!	!	!	!	!
4D\yy	.	4a/yy	.	4aT/yy	.	.	.	.	.	.	.	.	.	.
4GG;/yy	.	8g/Lyy	.	8g/Lyy	.	.	.	.	.	.	.	.	.	.
.	.	8d/Jyy	.	8d/Jyy	.	.	.	.	.	.	.	.	.	.
4ryy	.	4G;/yy	.	4G;/yy	.	.	.	.	.	.	.	.	.	.
==	==	==	==	==	==	==;	==	==	==	==	==	==	==	==
*-	*-	*-	*-	*-	*-	*-	*-	*-	*-	*-	*-	*-	*-	*-
!!!system-decoration: [(ww)][(bras)][vox][(str)][klav]
!!!RDF**kern: | = vertical stroke
!!LO:MO:mod
!! !!!RDF**kern: @ = marked note, color=grey
!!LO:MO:end
!!!filter-modern: shed -e "s/LO:N:/LO:n:$1/L" | shed -e "s/^(\d+[\/\\]right)/$1yy/I" | shed -e "s/LO:TUP:/LO:tup:$1/L" | shed -e "s/^(X?)tuplet$/$1TUPLET/I" | shed -e "s/yy//" | shed -e "s/TX(.*):t=P:/tx$1:t=P:/LG" | shed -e "s/LO:DY:/LO:dy:$1/L" | shed -k -e "s/([^a-gA-Gn#X-])[<>]/$1/g" | sic -sq | modori -m | autostem -r | tie -s | humtr -p
!!!ENC: Berenika Jozajtis
!!!END: 2020-05-19
!!!EED: Antoni Szymański
!!!EEV: 2020-10-03
!!!EED-revision: Andrzej Kubiczek
!!!EEV-revision: 2025-03-18
!!!ENC-modern: Andrzej Kubiczek
!!!END-modern: 2025-03-19
